!!!!SEGMENT: pl-cz--i-55_lessel-franciszek--benedicta-et-venerabilis.krn
!!!cenid: 18xx:273
!!!COM: Lessel, Franciszek
!!!COM-rismid: pe30004332
!!!CDT: 1780-1838/12/26
!!!CNT: Polish
!!!OTL: Benedicta et venerabilis
!!!PDT:
!!!AGN: Sacred
!!!SMS-siglum: PL-CZ
!!!SMS-shelfmark: I-55
!!!SMS-shelfwork: W
!!!NIFC-rismid:
!!!URL-scan: http://repozytorium.nifc.pl/skany/pl-cz-nut--i-55
!!!ONB-nifc:
!!!key:
**kern	**fb	**dynam	**kern	**text	**dynam	**kern	**text	**dynam	**kern	**text	**dynam	**kern	**text	**dynam	**kern	**dynam	**kern	**dynam	**kern	**dynam	**kern	**dynam	**kern	**dynam	**kern	**dynam	**kern	**dynam	**kern	**dynam
*part6	*	*part6	*part10	*part10	*part10	*part9	*part9	*part9	*part8	*part8	*part8	*part7	*part7	*part7	*part13	*part13	*part12	*part12	*part11	*part11	*part5	*part5	*part4	*part4	*part3	*part3	*part2	*part2	*part1	*part1
*staff6	*	*	*staff10	*staff10	*	*staff9	*staff9	*	*staff8	*staff8	*	*staff7	*staff7	*	*staff13	*	*staff12	*	*staff11	*	*staff5	*	*staff4	*	*staff3	*	*staff2	*	*staff1	*
*Iorgan	*	*	*Ibass	*	*	*Itenor	*	*	*Ialto	*	*	*Isoprn	*	*	*Iviola	*	*Ivioln	*	*Ivioln	*	*Icor	*	*Icor	*	*Iclars	*	*Iclars	*	*Iflt	*
*I"Organo	*	*	*I"Basso	*	*	*I"Tenore	*	*	*I"Alto	*	*	*I"Soprano	*	*	*I"Viola	*	*I"Violino secondo	*	*I"Violino primo	*	*I"Corno secondo in F	*	*I"Corno primo in F	*	*I"Clarinetto secondo in B♭	*	*I"Clarinetto primo in B♭	*	*I"Flauto	*
*I'Org.	*	*	*I'B	*	*	*I'T	*	*	*I'A	*	*	*I'S	*	*	*I'V-la	*	*I'V-no 2	*	*I'V-no 1	*	*I'Cor 2 in F	*	*I'Cor 1 in F	*	*I'Cl. 2 in B♭	*	*I'Cl 1 in B♭	*	*I'Fl	*
*clefF4	*	*	*clefF4	*	*	*clefC4	*	*	*clefC3	*	*	*clefC1	*	*	*clefC3	*	*clefG2	*	*clefG2	*	*clefG2	*	*clefG2	*	*clefG2	*	*clefG2	*	*clefG2	*
*	*	*	*	*	*	*	*	*	*	*	*	*	*	*	*	*	*	*	*	*	*ITrd4c7	*	*ITrd4c7	*	*ITrd1c2	*	*ITrd1c2	*	*	*
*k[b-]	*	*	*k[b-]	*	*	*k[b-]	*	*	*k[b-]	*	*	*k[b-]	*	*	*k[b-]	*	*k[b-]	*	*k[b-]	*	*k[b-]	*	*k[b-]	*	*k[b-]	*	*k[b-]	*	*k[b-]	*
*F:	*	*	*F:	*	*	*F:	*	*	*F:	*	*	*F:	*	*	*F:	*	*F:	*	*F:	*	*F:	*	*F:	*	*F:	*	*F:	*	*F:	*
*M2/4	*	*	*M2/4	*	*	*M2/4	*	*	*M2/4	*	*	*M2/4	*	*	*M2/4	*	*M2/4	*	*M2/4	*	*M2/4	*	*M2/4	*	*M2/4	*	*M2/4	*	*M2/4	*
=1	=1	=1	=1	=1	=1	=1	=1	=1	=1	=1	=1	=1	=1	=1	=1	=1	=1	=1	=1	=1	=1	=1	=1	=1	=1	=1	=1	=1	=1	=1
*	*	*below	*	*	*below	*	*	*below	*	*	*below	*	*	*below	*	*below	*	*below	*	*below	*	*below	*	*below	*	*below	*	*below	*	*below
!LO:TX:a:t=Andante	!	!	!LO:TX:a:t=Andante	!	!	!LO:TX:a:t=Andante	!	!	!LO:TX:a:t=Andante	!	!	!LO:TX:a:t=Andante	!	!	!LO:TX:a:t=Andante	!	!LO:TX:a:t=Andante	!	!LO:TX:a:t=Andante	!	!LO:TX:a:t=Andante	!	!LO:TX:a:t=Andante	!	!LO:TX:a:t=Andante	!	!	!	!LO:TX:a:t=Andante	!
!	!	!	!LO:TX:a:t=5	!	!	!LO:TX:a:t=5	!	!	!LO:TX:a:t=5	!	!	!LO:TX:a:t=5	!	!	!	!	!	!	!	!	!	!	!	!	!	!	!	!	!	!
4FF/	5	p	0r	.	.	0r	.	.	0r	.	.	0r	.	.	4c\	p	4A/	p	(8c/L	p	2A/	p	2f\	p	4a\	.	(4cc\	p	8r	.
.	.	.	.	.	.	.	.	.	.	.	.	.	.	.	.	.	.	.	8a/	.	.	.	.	.	.	.	.	.	(8aa\L	.
8GG/L	4 3	.	.	.	.	.	.	.	.	.	.	.	.	.	8c\L	.	8B-/L	.	8e/)	.	.	.	.	.	8g\L	.	8ee\L	.	8gg\	.
8AA/J	6	.	.	.	.	.	.	.	.	.	.	.	.	.	8A\J	.	8c/J	.	8f/J	.	.	.	.	.	8a\J	.	8ff\J)	.	8ff\J)	.
=2	=2	=2	=2	=2	=2	=2	=2	=2	=2	=2	=2	=2	=2	=2	=2	=2	=2	=2	=2	=2	=2	=2	=2	=2	=2	=2	=2	=2	=2	=2
8D\L	#_	.	.	.	.	.	.	.	.	.	.	.	.	.	4A/	.	2d/	.	(4f#X^>/	.	4A/	.	4a\	.	(4a\	.	(4ff#X^<\	.	(4aa\	.
8C\J	.	.	.	.	.	.	.	.	.	.	.	.	.	.	.	.	.	.	.	.	.	.	.	.	.	.	.	.	.	.
4BB-/	6_	.	.	.	.	.	.	.	.	.	.	.	.	.	4A/	.	.	.	8g/)	.	4r	.	4r	.	8b-\)	.	8gg\)	.	8gg\)	.
.	10	.	.	.	.	.	.	.	.	.	.	.	.	.	.	.	.	.	[8dd\	.	.	.	.	.	8r	.	8dd\	.	8r	.
=3	=3	=3	=3	=3	=3	=3	=3	=3	=3	=3	=3	=3	=3	=3	=3	=3	=3	=3	=3	=3	=3	=3	=3	=3	=3	=3	=3	=3	=3	=3
4C\	9 3_	.	.	.	.	.	.	.	.	.	.	.	.	.	(8G/L	.	8e/L	.	8dd\]	.	4r	.	4r	.	8r	.	8dd\L	.	8r	.
.	8_	.	.	.	.	.	.	.	.	.	.	.	.	.	8A/J	.	8f/J	.	4cc\	.	.	.	.	.	8ff\	.	8cc\J	.	4ccc^\	.
4E\	6_	.	.	.	.	.	.	.	.	.	.	.	.	.	8B-/L)	.	4g/	.	.	.	4c/	.	4g\	.	8ee\L	.	4gg\	.	.	.
.	5	.	.	.	.	.	.	.	.	.	.	.	.	.	[8c/J	.	.	.	8b-\	.	.	.	.	.	8cc\J	.	.	.	8bb-\	.
=4	=4	=4	=4	=4	=4	=4	=4	=4	=4	=4	=4	=4	=4	=4	=4	=4	=4	=4	=4	=4	=4	=4	=4	=4	=4	=4	=4	=4	=4	=4
4F\	3	.	.	.	.	.	.	.	.	.	.	.	.	.	8c/L]	.	[2f/	.	4a/	.	8A/	.	8f\	.	4cc\	.	4ff\	.	4aa\	.
.	.	.	.	.	.	.	.	.	.	.	.	.	.	.	8c#X/J	.	.	.	.	.	8r	.	8r	.	.	.	.	.	.	.
8BB-/L	6| 5 3	.	.	.	.	.	.	.	.	.	.	.	.	.	4d/	.	.	.	8g/L	<	4r	.	4r	.	8b-\L	.	4dd\	.	8gg\L	.
8BBn/J	.	.	.	.	.	.	.	.	.	.	.	.	.	.	.	.	.	.	8g#X/J	[[	.	.	.	.	8a-X\J	.	.	.	8gg#X\J	.
=5	=5	=5	=5	=5	=5	=5	=5	=5	=5	=5	=5	=5	=5	=5	=5	=5	=5	=5	=5	=5	=5	=5	=5	=5	=5	=5	=5	=5	=5	=5
!	!	!	!	!	!LO:DY:b	!	!	!LO:DY:b	!	!	!LO:DY:b	!	!	!LO:DY:b	!	!	!	!	!LO:LB:g=original	!	!	!	!	!	!LO:LB:g=original	!	!	!	!	!
2C/	.	.	2r	.	p	2r	.	p	2r	.	p	2r	.	p	4.cn\	.	8f/L]	.	4a/	.	4A/	.	4f\	.	4an\	.	4.cc\	>	4aa\	.
.	.	.	.	.	.	.	.	.	.	.	.	.	.	.	.	.	16e/L	.	.	.	.	.	.	.	.	.	.	.	.	.
.	.	.	.	.	.	.	.	.	.	.	.	.	.	.	.	.	16d/JJ	.	.	.	.	.	.	.	.	.	.	.	.	.
.	.	.	.	.	.	.	.	.	.	.	.	.	.	.	.	.	4e/	.	4g/	.	4c/	.	4g\	.	4g\	.	.	.	4ggnT\	.
.	.	.	.	.	.	.	.	.	.	.	.	.	.	.	8B-X\	.	.	.	.	.	.	.	.	.	.	.	8b-X\	]]	.	.
=6	=6	=6	=6	=6	=6	=6	=6	=6	=6	=6	=6	=6	=6	=6	=6	=6	=6	=6	=6	=6	=6	=6	=6	=6	=6	=6	=6	=6	=6	=6
!LO:LB:g=original	!	!	!	!	!	!	!	!	!	!	!	!	!	!	!	!	!	!	!	!	!	!	!	!	!	!	!	!	!LO:LB:g=original	!
4FF/	8	.	4F\	Be-	.	4c\	Be-	.	4f\	Be-	.	4a\	Be-	.	4F/	.	4f/	.	4f/	.	4A/	.	4f\	.	4f/	.	4a\	.	4ff\	.
4r	.	.	4D\	-ne-	.	4d\	-ne-	.	4f\	-ne-	.	4a\	-ne-	.	4r	.	4r	.	4r	.	4r	.	4r	.	4r	.	4r	.	4r	.
=7	=7	=7	=7	=7	=7	=7	=7	=7	=7	=7	=7	=7	=7	=7	=7	=7	=7	=7	=7	=7	=7	=7	=7	=7	=7	=7	=7	=7	=7	=7
!LO:TX:a:t=4	!	!	!	!	!	!	!	!	!	!	!	!	!	!	!LO:LB:g=original	!	!LO:LB:g=original	!	!LO:TX:a:t=4	!	!LO:LB:g=original	!	!LO:LB:g=original	!	!	!	!	!	!	!
!	!	!	!	!	!	!	!	!	!	!	!	!	!	!	!LO:TX:a:t=4	!	!LO:TX:a:t=4	!	!	!	!LO:TX:a:t=4	!	!LO:TX:a:t=4	!	!LO:TX:a:t=4	!	!LO:TX:a:t=4	!	!LO:TX:a:t=4	!
0r	.	.	4BB-/	-dic-	.	8d\L	-dic-	.	(8f\L	-dic-	.	4dd\	-dic-	.	0r	.	0r	.	0r	.	0r	.	0r	.	0r	.	0r	.	0r	.
.	.	.	.	.	.	8e\J	.	.	8g\J)	.	.	.	.	.	.	.	.	.	.	.	.	.	.	.	.	.	.	.	.	.
.	.	.	8AA/	-ta-	.	8f\	-ta-	.	8a\	-ta-	.	4cc\	-ta-	.	.	.	.	.	.	.	.	.	.	.	.	.	.	.	.	.
.	.	.	8F\	et	.	8A\	et	.	8f\	et	.	.	.	.	.	.	.	.	.	.	.	.	.	.	.	.	.	.	.	.
=8	=8	=8	=8	=8	=8	=8	=8	=8	=8	=8	=8	=8	=8	=8	=8	=8	=8	=8	=8	=8	=8	=8	=8	=8	=8	=8	=8	=8	=8	=8
.	.	.	8G\L	-ve-	.	8B-\	-ve-	.	(8d\L	-ve-	.	([4b-\	-et-	.	.	.	.	.	.	.	.	.	.	.	.	.	.	.	.	.
.	.	.	8F\J	.	.	4d\	.	.	8g\J)	.	.	.	.	.	.	.	.	.	.	.	.	.	.	.	.	.	.	.	.	.
.	.	.	8E\L	ne	.	.	.	.	4e\	ne	.	16b-\]	.	.	.	.	.	.	.	.	.	.	.	.	.	.	.	.	.	.
.	.	.	.	.	.	.	.	.	.	.	.	16bn\	.	.	.	.	.	.	.	.	.	.	.	.	.	.	.	.	.	.
.	.	.	8C\J	.	.	8c\	ne	.	.	.	.	16cc\)	-ve-	.	.	.	.	.	.	.	.	.	.	.	.	.	.	.	.	.
.	.	.	.	.	.	.	.	.	.	.	.	16g\	-ne-	.	.	.	.	.	.	.	.	.	.	.	.	.	.	.	.	.
=9	=9	=9	=9	=9	=9	=9	=9	=9	=9	=9	=9	=9	=9	=9	=9	=9	=9	=9	=9	=9	=9	=9	=9	=9	=9	=9	=9	=9	=9	=9
!	!	!	!	!	!	!LO:LB:g=original	!	!	!LO:LB:g=original	!	!	!	!	!	!	!	!	!	!	!	!	!	!	!	!	!	!	!	!	!
.	.	.	8.E\	-ra-	.	8.c\	-ra-	.	8.g\	-ra-	.	8.b-\	-ra-	.	.	.	.	.	.	.	.	.	.	.	.	.	.	.	.	.
.	.	.	16E\k	-bi-	.	16c\k	-bi-	.	16g\k	-bi-	.	16b-\k	-bi-	.	.	.	.	.	.	.	.	.	.	.	.	.	.	.	.	.
.	.	.	8F\	-lis-	.	8c\	-lis-	.	8f\	-lis-	.	8a\	-lis-	.	.	.	.	.	.	.	.	.	.	.	.	.	.	.	.	.
.	.	.	8D\	-est-	.	8d\	-es-	.	8f\	-est-	.	8a\	-es-	.	.	.	.	.	.	.	.	.	.	.	.	.	.	.	.	.
=10	=10	=10	=10	=10	=10	=10	=10	=10	=10	=10	=10	=10	=10	=10	=10	=10	=10	=10	=10	=10	=10	=10	=10	=10	=10	=10	=10	=10	=10	=10
!	!	!	!LO:LB:g=original	!	!	!	!	!	!	!	!	!LO:LB:g=original	!	!	!	!	!	!	!	!	!	!	!	!	!	!	!	!	!	!
.	.	.	8BB-/	-Vir-	.	8d\	-Vir-	.	8f\	-Vir-	.	8g\	-Vir-	.	.	.	.	.	.	.	.	.	.	.	.	.	.	.	.	.
.	.	.	16BB-/	-go-	.	16d\	-go-	.	16f\	-go-	.	16g\	-go-	.	.	.	.	.	.	.	.	.	.	.	.	.	.	.	.	.
.	.	.	16BB-/	-Ma-	.	16d\	-Ma-	.	16f\	-Ma-	.	16g\	-Ma-	.	.	.	.	.	.	.	.	.	.	.	.	.	.	.	.	.
.	.	.	4BB-/	-ri-	.	4d\	-ri-	.	4d\	-ri-	.	4g\	-ri-	.	.	.	.	.	.	.	.	.	.	.	.	.	.	.	.	.
=11	=11	=11	=11	=11	=11	=11	=11	=11	=11	=11	=11	=11	=11	=11	=11	=11	=11	=11	=11	=11	=11	=11	=11	=11	=11	=11	=11	=11	=11	=11
4r	.	.	4AA/	-a	.	8c#X\	-a	.	8e\	-a	.	8a\	-a	.	8r	.	8r	.	8r	.	8r	.	8r	.	8r	.	8r	.	8r	.
.	.	.	.	.	.	8r	.	.	8r	.	.	8r	.	.	8d\	.	4f^/	.	(16cc\LL	.	8F/L	.	4f\	.	(8dd`\L	.	4ff\	.	(16ccc\LL	.
.	.	.	.	.	.	.	.	.	.	.	.	.	.	.	.	.	.	.	16b-\JJ)	.	.	.	.	.	.	.	.	.	16bb-\JJ)	.
4C/	6 4	.	4r	.	.	4r	.	.	4r	.	.	4r	.	.	4c\	.	.	.	(16b-\LL	.	8A/J	.	.	.	8cc`\	.	.	.	(16bb-\LL	.
.	.	.	.	.	.	.	.	.	.	.	.	.	.	.	.	.	.	.	16a\)	.	.	.	.	.	.	.	.	.	16aa\)	.
.	7 3	.	.	.	.	.	.	.	.	.	.	.	.	.	.	.	8e/	.	16g'\	.	8c/	.	8g\	.	8b-`\J)	.	8ee\	.	16gg`\	.
.	.	.	.	.	.	.	.	.	.	.	.	.	.	.	.	.	.	.	16cc'\JJ	.	.	.	.	.	.	.	.	.	16ccc`\JJ	.
=12	=12	=12	=12	=12	=12	=12	=12	=12	=12	=12	=12	=12	=12	=12	=12	=12	=12	=12	=12	=12	=12	=12	=12	=12	=12	=12	=12	=12	=12	=12
!	!	!	!	!	!LO:DY:a	!	!	!LO:DY:a	!	!	!LO:DY:b	!	!	!	!	!LO:DY:a	!	!LO:DY:a	!	!LO:DY:a	!	!	!	!	!	!	!	!	!	!
2F\	3_ 8	.	4F\	Be-	mf	4c\	Be-	mf	8f\L	Be-	f	4.a\	Be-	.	2c\	mf	8f/L	mf	2a/	mf	2A/	.	2f\	.	2a\	.	2ff\	.	2aa\	mf
.	_ 7	.	.	.	.	.	.	.	8e\J	.	.	.	.	.	.	.	8e/	.	.	.	.	.	.	.	.	.	.	.	.	.
.	_ 8	.	4F\	-ne-	.	4c\	-ne-	.	8f\L	-ne-	.	.	.	.	.	.	8f/	.	.	.	.	.	.	.	.	.	.	.	.	.
.	_ 5	.	.	.	.	.	.	.	8c\J	.	.	8a\	-ne-	.	.	.	8c/J	.	.	.	.	.	.	.	.	.	.	.	.	.
=13	=13	=13	=13	=13	=13	=13	=13	=13	=13	=13	=13	=13	=13	=13	=13	=13	=13	=13	=13	=13	=13	=13	=13	=13	=13	=13	=13	=13	=13	=13
!	!	!	!	!	!	!	!	!	!	!	!	!	!	!	!	!	!	!	!LO:TX:a:t=problem:mixed beam	!	!	!	!	!	!	!	!LO:LB:g=original	!	!	!
4B-\	3	.	4B-\	-dic-	.	4G/	-dic-	.	8d\L	-dic-	.	4dd\	-dic-	.	4G/	.	8d/L	.	8dd\L	.	8r	.	8r	.	4g/	.	8dd\L	.	4bb-\	.
.	.	.	.	.	.	.	.	.	8e\J	.	.	.	.	.	.	.	8e/J	.	16e/L	.	8c/L	.	8g\L	.	.	.	8ee\J	.	.	.
.	.	.	.	.	.	.	.	.	.	.	.	.	.	.	.	.	.	.	16dd\JJ	.	.	.	.	.	.	.	.	.	.	.
8A\L	6	.	8A\	-ta-	.	4A/	-ta-	.	8f\	-ta-	.	4cc\	-ta-	.	4A/	.	8f/L	.	[4cc\	.	8f/	.	8a\	.	8a\L	.	8ff\L	.	4aa\	.
8D\J	7 #	.	8D\	-et-	.	.	.	.	8f#X\	-et-	.	.	.	.	.	.	8f#X/J	.	.	.	8A/J	.	8a\J	.	8cc\J	.	8ff#X\J	.	.	.
=14	=14	=14	=14	=14	=14	=14	=14	=14	=14	=14	=14	=14	=14	=14	=14	=14	=14	=14	=14	=14	=14	=14	=14	=14	=14	=14	=14	=14	=14	=14
!	!	!	!	!	!	!	!	!	!	!	!	!	!	!	!	!	!	!	!	!	!LO:TX:a:t=1	!	!LO:TX:a:t=1	!	!	!	!	!	!	!
4G\	3_ 5_	.	4G\	ve-	.	8B-\	ve-	.	2g\	Vir	.	[2b-\	-et-	.	8B-/	.	2g/	.	8cc\L]	.	2r	.	2r	.	8b-\	.	2gg\	.	[2bb-\	.
.	.	.	.	.	.	4d\	.	.	.	.	.	.	.	.	4d\	.	.	.	16b-\L	.	.	.	.	.	4dd\	.	.	.	.	.
.	.	.	.	.	.	.	.	.	.	.	.	.	.	.	.	.	.	.	16a'\JJ	.	.	.	.	.	.	.	.	.	.	.
4E\	5	.	4E\	-ne-	.	.	.	.	.	.	.	.	.	.	.	.	.	.	[4b-\	.	.	.	.	.	.	.	.	.	.	.
.	6	.	.	.	.	8d-X\	-ne-	.	.	.	.	.	.	.	8d-X\	.	.	.	.	.	.	.	.	.	8dd-X\	.	.	.	.	.
=15	=15	=15	=15	=15	=15	=15	=15	=15	=15	=15	=15	=15	=15	=15	=15	=15	=15	=15	=15	=15	=15	=15	=15	=15	=15	=15	=15	=15	=15	=15
!	!	!	!	!	!	!LO:LB:g=original	!	!	!LO:LB:g=original	!	!	!	!	!	!	!	!	!	!LO:LB:g=original	!	!	!	!	!	!	!	!	!	!	!
4F\	3	.	8.F\	-ra-	.	8.c\	-ra-	.	4f\	-go	.	8b-\]	.	.	4c\	.	4f/	.	8b-\L]	.	8r	.	8r	.	4.cc\	.	4ff\	.	8bb-\L]	.
.	.	.	.	.	.	.	.	.	.	.	.	8a\	-Vir-	.	.	.	.	.	8a\J	.	8f\	.	8a\	.	.	.	.	.	8aa\	.
.	.	.	16FJk	-bi-	.	16c\k	-bi-	.	.	.	.	.	.	.	.	.	.	.	.	.	.	.	.	.	.	.	.	.	.	.
4AA/	6	.	4AA/	-lis-	.	8d\	-lis-	.	8.a\	-vir-	.	8ff\L	-go	.	8d\L	.	8.a/L	.	8ff\L	.	4A/	.	4a\	.	.	.	8aa\L	.	8fff\	.
.	5 6_	.	.	.	.	8c#X\	-est-	.	.	.	.	8ee\J	.	.	8c#X\J	.	.	.	8ee\J	.	.	.	.	.	8cc#X\	.	8gg\J	.	8eee\J	.
.	.	.	.	.	.	.	.	.	16g\k	-go	.	.	.	.	.	.	16g/Jk	.	.	.	.	.	.	.	.	.	.	.	.	.
=16	=16	=16	=16	=16	=16	=16	=16	=16	=16	=16	=16	=16	=16	=16	=16	=16	=16	=16	=16	=16	=16	=16	=16	=16	=16	=16	=16	=16	=16	=16
!	!	!	!LO:LB:g=original	!	!	!	!	!	!	!	!	!LO:LB:g=original	!	!	!	!	!	!	!	!	!LO:TX:a:t=1	!	!LO:TX:a:t=1	!	!LO:LB:g=original	!	!	!	!	!
4BB-/	3	.	4BB-/	-Vir-	.	4d\	Vir-	.	2f\	Ma-	.	8dd'\L	et-	.	4d\	.	2f/	.	8dd\L	.	2r	.	2r	.	8ddn\	.	8ff\	.	8ddd\	.
.	.	.	.	.	.	.	.	.	.	.	.	(16cc\L	-Vir-	.	.	.	.	.	16cc\L	.	.	.	.	.	8r	.	8r	.	8r	.
.	.	.	.	.	.	.	.	.	.	.	.	16b-\JJ)	.	.	.	.	.	.	16b-\JJ	.	.	.	.	.	.	.	.	.	.	.
8C/L	6 4_	.	8C/	-go-	.	8cn\	-go-	.	.	.	.	8a\	-go-	.	8cn\L	.	.	.	8a\L	.	.	.	.	.	8r	.	8r	.	8r	.
8D/J	6	.	8D/	-Ma-	.	8B-X\	-Ma	.	.	.	.	8b-\	-Ma-	.	8B-\J	.	.	.	8b-\J	.	.	.	.	.	8dd\	.	8ff\	.	8bb-\	.
=17	=17	=17	=17	=17	=17	=17	=17	=17	=17	=17	=17	=17	=17	=17	=17	=17	=17	=17	=17	=17	=17	=17	=17	=17	=17	=17	=17	=17	=17	=17
!	!	!	!	!	!	!	!	!	!	!	!	!	!	!	!	!	!	!	!	!	!	!	!	!	!	!	!	!	!LO:LB:g=original	!
4BB-/	9_ 5_	.	(4BB-/	-ri-	.	(4B-\	-ri-	.	4.d\	-ri-	.	2g\	-ri-	.	4B-/	.	4d/	.	[4g/	.	2g\	.	2g\	.	4g/	.	4dd\	.	2gg\	.
4BBn/	.	.	4BBn/)	.	.	4d\)	.	.	.	.	.	.	.	.	4d\	.	4f/	.	16g/LL]	.	.	.	.	.	8bX\L	.	4ff\	.	.	.
.	.	.	.	.	.	.	.	.	.	.	.	.	.	.	.	.	.	.	16f/	.	.	.	.	.	.	.	.	.	.	.
.	.	.	.	.	.	.	.	.	8f\	.	.	.	.	.	.	.	.	.	16a/	.	.	.	.	.	8dd\J	.	.	.	.	.
.	.	.	.	.	.	.	.	.	.	.	.	.	.	.	.	.	.	.	16g/JJ	.	.	.	.	.	.	.	.	.	.	.
=18	=18	=18	=18	=18	=18	=18	=18	=18	=18	=18	=18	=18	=18	=18	=18	=18	=18	=18	=18	=18	=18	=18	=18	=18	=18	=18	=18	=18	=18	=18
!LO:LB:g=original	!	!	!	!	!	!	!	!	!	!	!	!	!	!	!	!	!LO:LB:g=original	!	!	!	!	!	!	!	!	!	!	!	!	!
4C/	5	.	4C/	-a	.	4c\	-a	.	4e\	-a	.	4g\	-a	.	4c\	.	8e/	.	16r	.	4g\	.	4g\	.	8cc\	.	8ee\	.	4gg\	.
.	.	.	.	.	.	.	.	.	.	.	.	.	.	.	.	.	.	.	(16Bn/LL	.	.	.	.	.	.	.	.	.	.	.
.	.	.	.	.	.	.	.	.	.	.	.	.	.	.	.	.	8r	.	16c/	.	.	.	.	.	8r	.	8r	.	.	.
.	.	.	.	.	.	.	.	.	.	.	.	.	.	.	.	.	.	.	16e/JJ)	.	.	.	.	.	.	.	.	.	.	.
4r	.	.	4r	.	.	4r	.	.	4r	.	.	4r	.	.	8r	.	8r	.	16g/	<	8r	.	8r	.	8r	.	8r	.	16r	.
.	.	.	.	.	.	.	.	.	.	.	.	.	.	.	.	.	.	.	16cc'\LL	.	.	.	.	.	.	.	.	.	16ccc`\LL	.
.	.	.	.	.	.	.	.	.	.	.	.	.	.	.	8g\	f	8g\ 8b-	f	16dd'\	.	8c/	.	8g\	.	8ee\	f	8gg\	.	16ddd`\	.
.	.	.	.	.	.	.	.	.	.	.	.	.	.	.	.	.	.	.	16ee'\JJ	[[	.	.	.	.	.	.	.	.	16eee`\JJ	.
=19	=19	=19	=19	=19	=19	=19	=19	=19	=19	=19	=19	=19	=19	=19	=19	=19	=19	=19	=19	=19	=19	=19	=19	=19	=19	=19	=19	=19	=19	=19
!	!	!	!	!	!LO:DY:b	!	!	!LO:DY:b	!	!	!LO:DY:b	!	!	!LO:DY:b	!LO:LB:g=original	!	!	!	!	!	!LO:LB:g=original	!	!LO:LB:g=original	!	!	!	!	!	!	!
4F\	6	ff	4F\	que-	f	4c\	que-	f	4a\	que-	f	4ff\	que-	f	8f\L	.	8f/L 8a	ff	8ff\L	f	8r	.	8r	.	8r	.	8r	.	4fff\	.
.	.	.	.	.	.	.	.	.	.	.	.	.	.	.	8f\J	.	8f/J 8a	.	8a\J 8ff	.	8f\	f	8a\	f	8ff`\	.	8aa\	f	.	.
4G\	4 3	.	4G\	-fi-	.	4e\	-fi-	.	4b-\	-fi-	.	4cc\	-fi-	.	8r	.	8r	.	8r	.	8r	.	8r	.	8r	.	8r	.	4ccc\	.
.	.	.	.	.	.	.	.	.	.	.	.	.	.	.	8b-\	.	8e/ 8cc	.	8g/ 8cc	.	8c/	.	8g\	.	8b-`\	.	8ee\	.	.	.
=20	=20	=20	=20	=20	=20	=20	=20	=20	=20	=20	=20	=20	=20	=20	=20	=20	=20	=20	=20	=20	=20	=20	=20	=20	=20	=20	=20	=20	=20	=20
!	!	!	!	!	!	!	!	!	!	!	!	!	!	!	!	!	!	!	!LO:LB:g=original	!	!	!	!	!	!	!	!	!	!	!
*	*	*	*	*	*	*	*	*	*	*	*	*	*	*	*	*	*^	*	*	*	*	*	*	*	*	*	*	*	*	*
4A\	6	.	4A\	-ne-	.	4f\	-ne-	.	4a\	-ne-	.	4cc\	-ne-	.	4a\	.	4a/	4f\	.	4f/ 4cc	.	4A/	.	4f\	.	4a\	.	4ff\	.	4ccc\	.
*	*	*	*	*	*	*	*	*	*	*	*	*	*	*	*	*	*v	*v	*	*	*	*	*	*	*	*	*	*	*	*	*
4r	.	.	4r	.	.	4r	.	.	4r	.	.	4r	.	.	4r	.	4r	.	4r	.	8c/L	.	8g\L	.	8cc\L	.	8gg\L	.	8eee\L	.
.	.	.	.	.	.	.	.	.	.	.	.	.	.	.	.	.	.	.	.	.	8f/J	.	8a\J	.	8cc\J	.	8aa\J	.	8fff\J	.
=21	=21	=21	=21	=21	=21	=21	=21	=21	=21	=21	=21	=21	=21	=21	=21	=21	=21	=21	=21	=21	=21	=21	=21	=21	=21	=21	=21	=21	=21	=21
4E\	6 5	.	4E\	-que-	.	4c\	-que-	.	4b-\	-que-	.	4gg\	-que-	.	8r	.	8r	.	8b-\L 8gg	.	8r	.	8r	.	8r	.	8r	.	4ggg\	.
.	.	.	.	.	.	.	.	.	.	.	.	.	.	.	8c\ 8g	.	8e/ 8cc	.	8b-\J 8gg	.	8c/	.	8g\	.	8ee`\	.	8bb-\	.	.	.
4F\	8 3	.	4F\	-fi-	.	4f\	-fi-	.	4a\	-fi-	.	4cc\	-fi-	.	8r	.	8r	.	8r	.	8r	.	8r	.	8r	.	8r	.	4ccc\	.
.	.	.	.	.	.	.	.	.	.	.	.	.	.	.	8c\ 8f	.	8f/ 8a	.	8f/ 8cc	.	8f\	.	8a\	.	8ff`\	.	8aa\	.	.	.
=22	=22	=22	=22	=22	=22	=22	=22	=22	=22	=22	=22	=22	=22	=22	=22	=22	=22	=22	=22	=22	=22	=22	=22	=22	=22	=22	=22	=22	=22	=22
!	!	!	!	!	!	!LO:LB:g=original	!	!	!	!	!	!	!	!	!	!	!	!	!	!	!	!	!	!	!LO:LB:g=original	!	!	!	!	!
4G\	6 4 3	.	4G\	-ne	.	4e\	-ne	.	4g\	-ne	.	4cc\	-ne	.	4c\ 4e	.	4c/ 4g	.	4e/ 4cc	.	4c/	.	4g\	.	4ee\	.	4gg\	.	4ccc\	.
!	!	!	!	!	!	!	!	!	!	!	!	!	!	!	!	!	!	!	!	!	!LO:TX:a:t=problem:mixed beam	!	!	!	!	!	!	!	!	!
4r	.	.	4r	.	.	4r	.	.	4r	.	.	4r	.	.	4r	.	4r	.	16r	.	8f\L	.	8a\L	.	8ff`\L	.	8aa\L	.	8ccc\L	.
.	.	.	.	.	.	.	.	.	.	.	.	.	.	.	.	.	.	.	16cc\LL	.	.	.	.	.	.	.	.	.	.	.
.	.	.	.	.	.	.	.	.	.	.	.	.	.	.	.	.	.	.	8qee/	.	.	.	.	.	.	.	.	.	.	.
.	.	.	.	.	.	.	.	.	.	.	.	.	.	.	.	.	.	.	16dd\	.	8c/J	.	8g\J	.	8ee`\J	.	8gg\J	.	8eee\J	.
.	.	.	.	.	.	.	.	.	.	.	.	.	.	.	.	.	.	.	16cc\JJ	.	.	.	.	.	.	.	.	.	.	.
=23	=23	=23	=23	=23	=23	=23	=23	=23	=23	=23	=23	=23	=23	=23	=23	=23	=23	=23	=23	=23	=23	=23	=23	=23	=23	=23	=23	=23	=23	=23
!	!	!	!	!	!	!	!	!	!LO:LB:g=original	!	!	!LO:LB:g=original	!	!	!	!	!	!	!	!	!	!	!	!	!	!	!LO:LB:g=original	!	!	!
8F\L	10_ 5_	.	8F\L	tac-	.	4f\	fac-	.	4cc\	tac-	.	4aa\	tac-	.	16f\KL	.	16cc\KL	f	16aa\KL	f	4A/	.	4f\	.	4ff\	f	4aa\	.	4fff\	.
.	.	.	.	.	.	.	.	.	.	.	.	.	.	.	8f\	.	8cc\	.	8aa\	.	.	.	.	.	.	.	.	.	.	.
16G\L	.	.	16G\L	.	.	.	.	.	.	.	.	.	.	.	.	.	.	.	.	.	.	.	.	.	.	.	.	.	.	.
16A\JJ	.	.	16A\JJ	.	.	.	.	.	.	.	.	.	.	.	16f\Jk	.	16cc\Jk	.	16aa\Jk	.	.	.	.	.	.	.	.	.	.	.
*	*	*	*	*	*	*	*	*	*	*	*	*	*	*	*tremolo	*	*	*	*	*	*	*	*	*	*	*	*	*	*	*
8B-\L	6_ 6_	.	8B-\	-ta-	.	8d\	-ta-	.	[4g\	-ta-	.	8gg\	-ta-	.	16d\LL	.	16b-X\LL	.	16gg\LL	.	4r	.	4r	.	4dd\	.	4gg\	.	4ddd\	.
.	.	.	.	.	.	.	.	.	.	.	.	.	.	.	16d\	.	16b-\	.	16gg\	.	.	.	.	.	.	.	.	.	.	.
8Bn\J	.	.	8Bn\	-pu-	.	8g\	pu-	.	.	.	.	8dd\	-pu-	.	16d\	.	16g\	.	16dd\	.	.	.	.	.	.	.	.	.	.	.
.	.	.	.	.	.	.	.	.	.	.	.	.	.	.	16d\JJ	.	16g\JJ	.	16dd\JJ	.	.	.	.	.	.	.	.	.	.	.
*	*	*	*	*	*	*	*	*	*	*	*	*	*	*	*Xtremolo	*	*	*	*	*	*	*	*	*	*	*	*	*	*	*
=24	=24	=24	=24	=24	=24	=24	=24	=24	=24	=24	=24	=24	=24	=24	=24	=24	=24	=24	=24	=24	=24	=24	=24	=24	=24	=24	=24	=24	=24	=24
!	!	!	!LO:LB:g=original	!	!	!	!	!	!	!	!	!	!	!	!	!	!LO:LB:g=original	!	!	!	!	!	!	!	!	!	!	!	!LO:LB:g=original	!
4.c\	4	.	(4.c\	-do-	.	4c\	-do-	.	8g\]	.	.	4ff\	-do-	.	16c\KL	.	8g/L	.	16ff\KL	.	4.f\	.	4.a\	.	4.cc\	.	4ff\	.	4ccc\	.
.	.	.	.	.	.	.	.	.	.	.	.	.	.	.	8c\	.	.	.	8ff\	.	.	.	.	.	.	.	.	.	.	.
.	.	.	.	.	.	.	.	.	16a\LL	pu	.	.	.	.	.	.	16a/L	.	.	.	.	.	.	.	.	.	.	.	.	.
.	3	.	.	.	.	.	.	.	16bn\JJ	.	.	.	.	.	16c\Jk	.	16bn/JJ	.	16ff\Jk	.	.	.	.	.	.	.	.	.	.	.
.	.	.	.	.	.	4e\	-ris-	.	8cc\	-do-	.	[4ee\	-ris-	.	16g\LL	.	8cc\L	.	16ee\LL	.	.	.	.	.	.	.	4ee\	.	[4eee\	.
.	.	.	.	.	.	.	.	.	.	.	.	.	.	.	16g\	.	.	.	16ee\	.	.	.	.	.	.	.	.	.	.	.
8c#X\	6 5	.	8c#X\)	.	.	.	.	.	8g\	-ris-	.	.	.	.	16a\	.	8g\J	.	16ee\	.	8r	.	8r	.	8cc#X\	.	.	.	.	.
.	.	.	.	.	.	.	.	.	.	.	.	.	.	.	16a\JJ	.	.	.	16ee\JJ	.	.	.	.	.	.	.	.	.	.	.
=25	=25	=25	=25	=25	=25	=25	=25	=25	=25	=25	=25	=25	=25	=25	=25	=25	=25	=25	=25	=25	=25	=25	=25	=25	=25	=25	=25	=25	=25	=25
!	!	!	!	!	!	!	!	!	!	!	!	!	!	!	!LO:LB:g=original	!	!	!	!LO:LB:g=original	!	!	!	!	!	!	!	!	!	!	!
!	!	!	!	!	!	!	!	!	!	!	!	!	!	!	!	!	!	!	!LO:TX:a:t=problem:mixed beam	!	!	!	!	!	!	!	!	!	!	!
8d\L	9_ 3_	.	8d\	-ris-	.	4.A\	-in-	.	4.f\	-in-	.	4ee\]	.	.	16a\KL	.	16f/KL	.	16ee\KL	.	4r	.	4r	.	4.a\	.	2ff\	.	4eee\]	.
.	.	.	.	.	.	.	.	.	.	.	.	.	.	.	8a\	.	8f/	.	8f/	.	.	.	.	.	.	.	.	.	.	.
16D\L	.	.	16D\LL	in-	.	.	.	.	.	.	.	.	.	.	.	.	.	.	.	.	.	.	.	.	.	.	.	.	.	.
16E\JJ	.	.	16E\JJ	.	.	.	.	.	.	.	.	.	.	.	16a\Jk	.	8f/	.	16ee\Jk	.	.	.	.	.	.	.	.	.	.	.
*	*	*	*	*	*	*	*	*	*	*	*	*	*	*	*	*	*	*	*tremolo	*	*	*	*	*	*	*	*	*	*	*
8F\L	6_	.	8F\	-ven-	.	.	.	.	.	.	.	4dd\	-in-	.	16a\LL	.	.	.	16dd\LL	.	4A/	.	4a\	.	.	.	.	.	4ddd\	.
.	.	.	.	.	.	.	.	.	.	.	.	.	.	.	16a\	.	8f/	.	16dd\	.	.	.	.	.	.	.	.	.	.	.
8G\J	.	.	8G\	-ta-	.	8B-\	-ven-	.	8e\	-ven-	.	.	.	.	16b-\	.	.	.	16dd\	.	.	.	.	.	8b-\	.	.	.	.	.
.	.	.	.	.	.	.	.	.	.	.	.	.	.	.	16b-\JJ	.	16f/Jk	.	16dd\JJ	.	.	.	.	.	.	.	.	.	.	.
=26	=26	=26	=26	=26	=26	=26	=26	=26	=26	=26	=26	=26	=26	=26	=26	=26	=26	=26	=26	=26	=26	=26	=26	=26	=26	=26	=26	=26	=26	=26
*	*	*	*	*	*	*	*	*	*	*	*	*	*	*	*tremolo	*	*tremolo	*	*	*	*	*	*	*	*	*	*	*	*	*
!LO:LB:g=original	!	!	!	!	!	!	!	!	!	!	!	!	!	!	!	!	!	!	!	!	!LO:LB:g=original	!	!LO:LB:g=original	!	!	!	!	!	!	!
8A\L	#_	.	8A\L	-ven-	.	8A\	-ta-	.	4e\	-ta-	.	4cc#X\	-ven-	.	8a\LL	.	16e/LL	.	16cc#X\LL	.	8A/	.	8a\	.	2a\	.	2ee\	.	2ccc#X\	.
.	.	.	.	.	.	.	.	.	.	.	.	.	.	.	.	.	16e/	.	16cc#\	.	.	.	.	.	.	.	.	.	.	.
8B-X\	.	.	8B-\J	.	.	8r	.	.	.	.	.	.	.	.	8a\	.	16e/	.	16cc#\	.	8r	.	8r	.	.	.	.	.	.	.
.	.	.	.	.	.	.	.	.	.	.	.	.	.	.	.	.	16e/JJ	.	16cc#\JJ	.	.	.	.	.	.	.	.	.	.	.
*	*	*	*	*	*	*	*	*	*	*	*	*	*	*	*	*	*	*	*Xtremolo	*	*	*	*	*	*	*	*	*	*	*
8A\	.	.	8A\	-ta-	.	4e\	-es-	.	4a\	-es-	.	8cc#\	-ta-	.	8a\	.	16e/LL	.	16cc#\LL	.	4r	.	4r	.	.	.	.	.	.	.
.	.	.	.	.	.	.	.	.	.	.	.	.	.	.	.	.	16e/	.	16aa\	.	.	.	.	.	.	.	.	.	.	.
8G\J	.	.	8G\	-es	.	.	.	.	.	.	.	8cc#\	-est-	.	8a\JJ	.	16e/	.	16cc#\	.	.	.	.	.	.	.	.	.	.	.
.	.	.	.	.	.	.	.	.	.	.	.	.	.	.	.	.	16e/JJ	.	16cc#\JJ	.	.	.	.	.	.	.	.	.	.	.
*	*	*	*	*	*	*	*	*	*	*	*	*	*	*	*Xtremolo	*	*Xtremolo	*	*	*	*	*	*	*	*	*	*	*	*	*
=27	=27	=27	=27	=27	=27	=27	=27	=27	=27	=27	=27	=27	=27	=27	=27	=27	=27	=27	=27	=27	=27	=27	=27	=27	=27	=27	=27	=27	=27	=27
8F\L	6 3	.	8F\	-Ma-	.	8d\	-Ma-	.	4a\	-Ma-	.	(8dd\L	-Ma-	.	16f\LL	.	16f/LL	.	16dd\LL	.	4r	.	4r	.	8a\	.	8ff\	.	8ddd\	.
.	.	.	.	.	.	.	.	.	.	.	.	.	.	.	16f\	.	16a/	.	16ddd\	.	.	.	.	.	.	.	.	.	.	.
8F#X\J	.	.	8F#X\	ter-	.	8d\	-ter-	.	.	.	.	8a\J)	.	.	16d\	.	16a/	.	16ddd\	.	.	.	.	.	8r	.	8r	.	8r	.
.	.	.	.	.	.	.	.	.	.	.	.	.	.	.	16d\JJ	.	16a/JJ	.	16ccc\JJ	.	.	.	.	.	.	.	.	.	.	.
4G\	3 5	.	8G\	-Sal-	.	8d\	-Sal-	.	4g\	-ter-	.	8b-\	-ter-	.	16d\LL	.	16g/LL	.	(16bb-X\LL	.	4A/	.	4a\	.	8dd\L	.	[4gg\	.	4bb-\	.
.	6 6	.	.	.	.	.	.	.	.	.	.	.	.	.	16d\	.	16b-/	.	16gg\)	.	.	.	.	.	.	.	.	.	.	.
.	.	.	8G\	-va-	.	8e\	-va-	.	.	.	.	16b-\	-Sal-	.	16e\	.	16b-/	.	(16gg\	.	.	.	.	.	8ee\J	.	.	.	.	.
.	.	.	.	.	.	.	.	.	.	.	.	16b-\	-va-	.	16e\JJ	.	16b-/JJ	.	16ee\JJ)	.	.	.	.	.	.	.	.	.	.	.
=28	=28	=28	=28	=28	=28	=28	=28	=28	=28	=28	=28	=28	=28	=28	=28	=28	=28	=28	=28	=28	=28	=28	=28	=28	=28	=28	=28	=28	=28	=28
!	!	!	!	!	!	!	!	!	!	!	!	!LO:N:vis=2.	!	!	!	!	!	!	!	!	!	!	!	!	!	!	!	!	!	!
4A\	4_ 8_ 7	>	4A\	-to-	.	4.d\	-to-	.	8g\	-sal-	.	2a\	-to-	.	8d\	.	8a/	.	8dd\	.	4A/	.	4a\	.	4.dd\	.	8gg\L]	.	2aa\	.
.	_ _ 6	.	.	.	.	.	.	.	8f\	-va-	.	.	.	.	8r	.	8r	.	8r	.	.	.	.	.	.	.	8ff\J	.	.	.
4AA/	# _ 5_	]]	4AA/	.	.	.	.	.	4e\	-to-	.	.	.	.	8r	.	8r	.	8r	.	4r	.	4r	.	.	.	4ee\	.	.	.
.	.	.	.	.	.	8c#X\	.	.	.	.	.	.	.	.	8c#X\	.	8g/	.	[8a/	.	.	.	.	.	8cc#X\	.	.	.	.	.
=29	=29	=29	=29	=29	=29	=29	=29	=29	=29	=29	=29	=29	=29	=29	=29	=29	=29	=29	=29	=29	=29	=29	=29	=29	=29	=29	=29	=29	=29	=29
!	!	!	!	!	!	!LO:LB:g=original	!	!	!	!	!	!LO:LB:g=original	!	!	!	!	!	!	!	!	!LO:TX:a:t=1	!	!LO:TX:a:t=1	!	!LO:LB:g=original	!	!	!	!	!
4D\	8 n	.	4D\	-ris	.	4d\	-ris	.	4f\	-ris	.	4a\	-ris	.	4d\	.	4f/	.	8a\L]	.	2r	.	2r	.	4dd\	.	4dd\	.	4aa\	.
.	.	.	.	.	.	.	.	.	.	.	.	.	.	.	.	.	.	.	16dd\L	.	.	.	.	.	.	.	.	.	.	.
.	.	.	.	.	.	.	.	.	.	.	.	.	.	.	.	.	.	.	16cc\JJ	.	.	.	.	.	.	.	.	.	.	.
8r	.	.	4r	.	.	4r	.	.	4r	.	.	4r	.	.	8r	.	8r	.	8b-\L	.	.	.	.	.	8r	.	8r	.	8r	.
8D\	6|n 5- 3	.	.	.	.	.	.	.	.	.	.	.	.	.	8f\	.	8a-X/	.	8bn\J	.	.	.	.	.	8dd\	.	8ff\	.	8bbn\	.
=30	=30	=30	=30	=30	=30	=30	=30	=30	=30	=30	=30	=30	=30	=30	=30	=30	=30	=30	=30	=30	=30	=30	=30	=30	=30	=30	=30	=30	=30	=30
!	!	!	!LO:LB:g=original	!	!	!LO:TX:a:t=3	!	!	!LO:LB:g=original	!	!	!LO:TX:a:t=2	!	!	!LO:LB:g=original	!	!LO:LB:g=original	!	!LO:LB:g=original	!	!	!	!	!	!	!	!	!	!	!
!	!	!	!LO:TX:a:t=3	!	!	!	!	!	!LO:TX:a:t=2	!	!	!LO:N:vis=1	!	!	!	!	!	!	!	!	!	!	!	!	!	!	!	!	!	!
4E-X\	6	.	1r	.	.	1r	.	.	1r	.	.	1r	.	.	4e-X\	.	4g/	.	8cc\L	.	4r	.	4r	.	4ccn\	.	4ee-\	.	4ccc\	.
.	.	.	.	.	.	.	.	.	.	.	.	.	.	.	.	.	.	.	16ee-X\L	.	.	.	.	.	.	.	.	.	.	.
.	.	.	.	.	.	.	.	.	.	.	.	.	.	.	.	.	.	.	16dd\JJ	.	.	.	.	.	.	.	.	.	.	.
8r	.	.	.	.	.	.	.	.	.	.	.	.	.	.	8r	.	8r	.	8cc\L	.	8r	.	8r	.	8r	.	8r	.	8r	.
8En\	6| 5	.	.	.	.	.	.	.	.	.	.	.	.	.	8c#X\	.	[8b-/	.	8gg\J	.	8A/	.	8f\	.	8een\	.	8gg\	.	8ccc#X\	.
=31	=31	=31	=31	=31	=31	=31	=31	=31	=31	=31	=31	=31	=31	=31	=31	=31	=31	=31	=31	=31	=31	=31	=31	=31	=31	=31	=31	=31	=31	=31
!	!	!	!	!	!	!	!	!	!	!	!	!	!	!	!	!	!	!	!	!	!LO:TX:a:t=10	!	!LO:TX:a:t=10	!	!	!	!	!	!	!
2F\	6 4	.	.	.	.	.	.	.	.	.	.	.	.	.	4d\	.	8b-/L]	.	(16ff\LL	.	0r	.	0r	.	8ff`\L	.	4ff\	.	8ddd\L	.
.	8 6	.	.	.	.	.	.	.	.	.	.	.	.	.	.	.	.	.	16dd\	.	.	.	.	.	.	.	.	.	.	.
.	9 7 5#	.	.	.	.	.	.	.	.	.	.	.	.	.	.	.	16f/L	.	16b-\	.	.	.	.	.	(8dd\	.	.	.	8bb-\	.
.	.	.	.	.	.	.	.	.	.	.	.	.	.	.	.	.	16d/JJ	.	16f\JJ)	.	.	.	.	.	.	.	.	.	.	.
!	!	!	!	!	!	!	!	!	!	!	!	!	!	!	!	!	!	!LO:HP:a	!	!	!	!	!	!	!	!	!	!	!	!
.	10 7- 5n	.	.	.	.	.	.	.	.	.	.	.	.	.	(8c#X\L	.	8e/L	>	8g/L	.	.	.	.	.	8dd-X\	.	8een\L	.	8gg\	.
.	.	.	.	.	.	.	.	.	.	.	.	.	.	.	8cn\J)	.	8e-X/J	]]	8a/J	.	.	.	.	.	8cc\J)	.	8ee-\J	.	8aa\J	.
=32	=32	=32	=32	=32	=32	=32	=32	=32	=32	=32	=32	=32	=32	=32	=32	=32	=32	=32	=32	=32	=32	=32	=32	=32	=32	=32	=32	=32	=32	=32
*	*	*	*	*	*	*	*	*	*	*	*	*	*	*	*tremolo	*	*	*	*	*	*	*	*	*	*	*	*	*	*	*
!	!	!	!	!	!	!	!	!	!LO:TX:a:i:t=Solo	!	!	!LO:TX:a:i:t=Solo	!	!	!	!	!	!	!	!	!	!	!	!	!	!	!	!LO:LB:g=original	!	!
4BB-/	8 3	.	2r	.	.	2r	.	.	4f\	Vir-	.	8dd\L	Vir-	.	(8B-/LL	p	8d/L	p	(16b-/LL	p	.	.	.	.	4b-\	.	4dd\	.	4bb-\	.
.	.	.	.	.	.	.	.	.	.	.	.	.	.	.	.	.	.	.	16f/	.	.	.	.	.	.	.	.	.	.	.
.	.	.	.	.	.	.	.	.	.	.	.	8a\J	.	.	8F-/)	.	(16B-/L	.	16d/	.	.	.	.	.	.	.	.	.	.	.
.	.	.	.	.	.	.	.	.	.	.	.	.	.	.	.	.	16d/JJ)	.	16f/JJ)	.	.	.	.	.	.	.	.	.	.	.
4r	.	.	.	.	.	.	.	.	8e-X\L	-go-	.	8cc\L	-go-	.	(8B-/	.	(16B-/LL	.	16d/LL	.	.	.	.	.	4r	.	4r	.	4r	.
.	.	.	.	.	.	.	.	.	.	.	.	.	.	.	.	.	16d/)	.	16f/	.	.	.	.	.	.	.	.	.	.	.
.	.	.	.	.	.	.	.	.	8d\J	.	.	8b-\J	.	.	8F-/JJ)	.	(16B-/	.	16d/	.	.	.	.	.	.	.	.	.	.	.
.	.	.	.	.	.	.	.	.	.	.	.	.	.	.	.	.	16d/JJ)	.	16f/JJ	.	.	.	.	.	.	.	.	.	.	.
*	*	*	*	*	*	*	*	*	*	*	*	*	*	*	*Xtremolo	*	*	*	*	*	*	*	*	*	*	*	*	*	*	*
=33	=33	=33	=33	=33	=33	=33	=33	=33	=33	=33	=33	=33	=33	=33	=33	=33	=33	=33	=33	=33	=33	=33	=33	=33	=33	=33	=33	=33	=33	=33
!LO:LB:g=original	!	!	!	!	!	!	!	!	!	!	!	!	!	!	!	!	!	!	!	!	!	!	!	!	!	!	!	!	!	!
!LO:TX:b:i:t=Tasto	!	!LO:DY:a	!LO:TX:a:i:t=Solo	!	!	!LO:TX:a:i:t=Solo	!	!	!	!	!	!	!	!	!	!	!	!	!	!	!	!	!	!	!LO:TX:a:i:t=Solo	!	!LO:TX:a:i:t=Solo	!	!LO:TX:a:i:t=Solo	!
4BB-/	.	p	8.BB-/	Vir-	.	4d\	Vir-	.	8r	.	.	4f/	-De-	.	16B-/LL	.	16B-/LL	.	16d/LL	.	.	.	.	.	4dd\	.	4ff\	.	4ddd\	.
.	.	.	.	.	.	.	.	.	.	.	.	.	.	.	16F/	.	16d/	.	16f/	.	.	.	.	.	.	.	.	.	.	.
.	.	.	.	.	.	.	.	.	8f\L	De-	.	.	.	.	16B-/	.	16B-/	.	16d/	.	.	.	.	.	.	.	.	.	.	.
.	.	.	16BB-/k	-go-	.	.	.	.	.	.	.	.	.	.	16F/JJ	.	16d/JJ	.	16f/JJ	.	.	.	.	.	.	.	.	.	.	.
4r	.	.	8C/L	-De-	.	8c\L	.	.	8a\J	.	.	8f/	-i-	.	16A/LL	.	16c/LL	.	16e-X/LL	.	.	.	.	.	8cc\L	.	8ee-\L	.	8ccc\L	.
.	.	.	.	.	.	.	.	.	.	.	.	.	.	.	16F/	.	16e-X/	.	16f/	.	.	.	.	.	.	.	.	.	.	.
.	.	.	8D/J	.	.	8B-\J	.	.	8b-\	-i	.	8r	.	.	16A/	.	16B-/	.	16d/	.	.	.	.	.	8b-\J	.	8dd\J	.	8bb-\J	.
.	.	.	.	.	.	.	.	.	.	.	.	.	.	.	16F/JJ	.	16d/JJ	.	16f/JJ	.	.	.	.	.	.	.	.	.	.	.
=34	=34	=34	=34	=34	=34	=34	=34	=34	=34	=34	=34	=34	=34	=34	=34	=34	=34	=34	=34	=34	=34	=34	=34	=34	=34	=34	=34	=34	=34	=34
*	*	*	*	*	*	*	*	*	*	*	*	*	*	*	*tremolo	*	*tremolo	*	*tremolo	*	*	*	*	*	*	*	*	*	*	*
!	!	!	!	!	!	!	!	!	!	!	!	!	!	!	!	!	!	!	!	!	!	!	!	!	!LO:TX:a:t=1	!	!LO:LB:g=original	!	!LO:TX:a:t=1	!
!	!	!	!	!	!	!	!	!	!	!	!	!	!	!	!	!	!	!	!	!	!	!	!	!	!	!	!LO:TX:a:t=1	!	!	!
4C/	.	.	4E-X\	-i-	.	4c\	-go-	.	4g\	-De-	.	8ee-X\L	-De-	.	8B-/LL	.	(8c/LL	.	8e-X/LL	.	.	.	.	.	2r	.	2r	.	2r	.
.	.	.	.	.	.	.	.	.	.	.	.	.	.	.	.	.	.	.	.	.	.	.	.	.	.	.	.	.	.	.
.	.	.	.	.	.	.	.	.	.	.	.	8bn\J	.	.	8G/	.	8e-/)	.	8g/	.	.	.	.	.	.	.	.	.	.	.
.	.	.	.	.	.	.	.	.	.	.	.	.	.	.	.	.	.	.	.	.	.	.	.	.	.	.	.	.	.	.
4r	.	.	4r	.	.	4r	.	.	8f\L	-i-	.	8dd\L	-i-	.	8B-/	.	(8c/	.	8e-/	.	.	.	.	.	.	.	.	.	.	.
.	.	.	.	.	.	.	.	.	.	.	.	.	.	.	.	.	.	.	.	.	.	.	.	.	.	.	.	.	.	.
.	.	.	.	.	.	.	.	.	8e-X\J	.	.	8cc\J	.	.	8G/JJ	.	8e-/JJ	.	8g/JJ	.	.	.	.	.	.	.	.	.	.	.
.	.	.	.	.	.	.	.	.	.	.	.	.	.	.	.	.	.	.	.	.	.	.	.	.	.	.	.	.	.	.
=35	=35	=35	=35	=35	=35	=35	=35	=35	=35	=35	=35	=35	=35	=35	=35	=35	=35	=35	=35	=35	=35	=35	=35	=35	=35	=35	=35	=35	=35	=35
*	*	*	*	*	*	*	*	*	*	*	*	*	*	*	*Xtremolo	*	*Xtremolo	*	*Xtremolo	*	*	*	*	*	*	*	*	*	*	*
!	!	!	!	!	!	!	!	!	!	!	!	!	!	!	!	!	!LO:LB:g=original	!	!	!	!	!	!	!	!	!	!	!	!	!
4AA/	.	.	8.AA/	De-	.	8.e-X\	Vir-	.	8r	.	.	8.f/	-ge-	.	16A/LL	.	16c/LL	.	16e-X/LL	.	0r	.	0r	.	4cc\	.	4ee-\	.	4ccc\	.
.	.	.	.	.	.	.	.	.	.	.	.	.	.	.	16F/	.	16e-X/	.	16f/	.	.	.	.	.	.	.	.	.	.	.
.	.	.	.	.	.	.	.	.	16cc\	De-	.	.	.	.	16A/	.	16c/	.	16e-/	.	.	.	.	.	.	.	.	.	.	.
.	.	.	16AA/k	-i-	.	16e-\k	-go-	.	16cc\	-i-	.	16f/k	-ni-	.	16F/JJ	.	16e-/JJ	.	16f/JJ	.	.	.	.	.	.	.	.	.	.	.
4r	.	.	8BB-/	-ge-	.	8d\L	-De-	.	8b-\L	-ge-	.	8f/	-trix	.	16B-/LL	.	16B-/LL	.	16d/LL	.	.	.	.	.	8b-\L	.	8dd\L	.	8bb-\L	.
.	.	.	.	.	.	.	.	.	.	.	.	.	.	.	16F/	.	16d/	.	16f/	.	.	.	.	.	.	.	.	.	.	.
.	.	.	8C/	-ni	.	8c\J	.	.	8a\J	-ni	.	8r	.	.	16A/	.	16c/	.	16e-/	.	.	.	.	.	8a\J	.	8cc\J	.	8aa\J	.
.	.	.	.	.	.	.	.	.	.	.	.	.	.	.	16F/JJ	.	16e-/JJ	.	16f/JJ	.	.	.	.	.	.	.	.	.	.	.
=36	=36	=36	=36	=36	=36	=36	=36	=36	=36	=36	=36	=36	=36	=36	=36	=36	=36	=36	=36	=36	=36	=36	=36	=36	=36	=36	=36	=36	=36	=36
!	!	!	!	!	!	!	!	!	!	!	!	!LO:LB:g=original	!	!	!LO:LB:g=original	!	!	!	!	!	!	!	!	!	!LO:LB:g=original	!	!	!	!	!
!	!	!	!	!	!	!	!	!	!	!	!	!	!	!	!	!	!	!	!	!	!	!	!	!	!LO:TX:a:t=1	!	!LO:TX:a:t=1	!	!LO:TX:a:t=1	!
4BB-/	.	.	4D\	trix	.	8d\	-i-	.	4f\	trix	.	8r	.	.	16r	.	16r	.	16d/LL	.	.	.	.	.	2r	.	2r	.	2r	.
.	.	.	.	.	.	.	.	.	.	.	.	.	.	.	16d\LL	.	16f/LL	.	16f/	.	.	.	.	.	.	.	.	.	.	.
.	.	.	.	.	.	8r	.	.	.	.	.	8b-\	quem-	.	16d\	.	16f/	.	16b-/	.	.	.	.	.	.	.	.	.	.	.
.	.	.	.	.	.	.	.	.	.	.	.	.	.	.	16d\JJ	.	16f/JJ	.	16b-/JJ	.	.	.	.	.	.	.	.	.	.	.
!	!	!	!	!	!LO:DY:b	!	!	!	!	!	!	!	!	!	!	!	!	!	!	!	!	!	!	!	!	!	!	!	!	!
8r	.	.	4G\	-quem-	f	4B-\	-quem-	.	4g\	-quem-	.	8ee-X\	-to-	.	16r	.	16r	.	16r	.	.	.	.	.	.	.	.	.	.	.
.	.	.	.	.	.	.	.	.	.	.	.	.	.	.	16B-/	.	16g/	.	16ee-X\	.	.	.	.	.	.	.	.	.	.	.
8G\	5	f	.	.	.	.	.	.	.	.	.	8dd\	-tas-	.	16r	.	16r	.	16r	.	.	.	.	.	.	.	.	.	.	.
.	.	.	.	.	.	.	.	.	.	.	.	.	.	.	16B-/	.	16g/	.	16dd\	.	.	.	.	.	.	.	.	.	.	.
=37	=37	=37	=37	=37	=37	=37	=37	=37	=37	=37	=37	=37	=37	=37	=37	=37	=37	=37	=37	=37	=37	=37	=37	=37	=37	=37	=37	=37	=37	=37
8C/L	10_ 7_ 5_	.	8C/	-to-	.	4B-\	-to-	.	4g\	-to-	.	8cc\	-to-	.	8B-/	.	8en/	.	8cc\	.	.	.	.	.	4r	.	4r	.	4r	.
8C#X/J	.	.	8C#X/	tas-	.	.	.	.	.	.	.	16dd\LL	-tas-	.	8r	.	8r	.	8r	.	.	.	.	.	.	.	.	.	.	.
.	.	.	.	.	.	.	.	.	.	.	.	16een\JJ	.	.	.	.	.	.	.	.	.	.	.	.	.	.	.	.	.	.
4D/	10 5 3	.	4D/	-non-	.	8A\	-tas-	.	8f\	-tas-	.	4ff\	-non-	.	8A/L	.	8f/L	.	[4ff\	sf	.	.	.	.	4ff\	.	4aa\	.	8fff\L	.
.	.	.	.	.	.	16d\LL	-non	.	8a\	-non	.	.	.	.	16d/L	.	8a/J	.	.	.	.	.	.	.	.	.	.	.	16ddd\L	.
.	.	.	.	.	.	16c\JJ	.	.	.	.	.	.	.	.	16c/JJ	.	.	.	.	.	.	.	.	.	.	.	.	.	16ccc\JJ	.
=38	=38	=38	=38	=38	=38	=38	=38	=38	=38	=38	=38	=38	=38	=38	=38	=38	=38	=38	=38	=38	=38	=38	=38	=38	=38	=38	=38	=38	=38	=38
!	!	!	!LO:LB:g=original	!	!	!LO:LB:g=original	!	!	!LO:LB:g=original	!	!	!	!	!	!	!	!	!	!LO:LB:g=original	!	!	!	!	!	!	!	!	!	!	!
4G\	5_ 3n_ 7_	.	8.F\	-ca-	.	8.Bn\	-ca-	.	8.g\	-ca-	.	8.dd\	-ca-	.	2Bn/	.	[4g/	f	16ff\LL]	.	.	.	.	.	2dd\	.	[4gg\	.	2bbn\	.
.	.	.	.	.	.	.	.	.	.	.	.	.	.	.	.	.	.	.	16ee\	.	.	.	.	.	.	.	.	.	.	.
.	.	.	.	.	.	.	.	.	.	.	.	.	.	.	.	.	.	.	16dd\	.	.	.	.	.	.	.	.	.	.	.
.	.	.	16G\k	-put-	.	16B\k	-put-	.	16g\k	-put-	.	16dd\k	-put-	.	.	.	.	.	16cc#X\JJ	.	.	.	.	.	.	.	.	.	.	.
4GG/	.	.	4G\	-or-	.	4B\	-or-	.	8g\L	-or-	.	4dd\	-or-	.	.	.	16g/LL]	.	4dd\	.	.	.	.	.	.	.	16gg\LL]	.	.	.
.	.	.	.	.	.	.	.	.	.	.	.	.	.	.	.	.	16a/	.	.	.	.	.	.	.	.	.	16aa\	.	.	.
.	.	.	.	.	.	.	.	.	8f\J	.	.	.	.	.	.	.	16f/	.	.	.	.	.	.	.	.	.	16ff\	.	.	.
.	.	.	.	.	.	.	.	.	.	.	.	.	.	.	.	.	16g/JJ	.	.	.	.	.	.	.	.	.	16gg\JJ	.	.	.
=39	=39	=39	=39	=39	=39	=39	=39	=39	=39	=39	=39	=39	=39	=39	=39	=39	=39	=39	=39	=39	=39	=39	=39	=39	=39	=39	=39	=39	=39	=39
!	!	!	!	!	!	!	!	!	!	!	!	!	!	!	!	!	!LO:LB:g=original	!	!	!	!	!	!	!	!	!	!	!	!	!
8C/	8	.	8C/	bis-	.	8c\	bis-	.	8e\	bis-	.	4cc\	-bis	.	8c/L	.	8e/L	mf	8cc\L	.	1r	.	1r	.	8cc\	.	8ee\L	.	8ccc\L	.
8r	5 3	.	8r	.	.	16G\	-in-	.	16e\	-in-	.	.	.	.	16G/L	.	16e/L	.	16dd\L	.	.	.	.	.	8r	.	16ee\L	.	16gg'\L	.
.	6 4	.	.	.	.	16A\	-tu-	.	16f\	-tu-	.	.	.	.	16A/JJ	.	16f/JJ	.	16cc\JJ	.	.	.	.	.	.	.	16ff\JJ	.	16aa'\JJ	.
!	!	!	!	!	!LO:DY:a	!	!	!	!	!	!	!	!	!	!	!	!	!	!	!	!	!	!	!	!	!	!	!	!	!
8E\L	5_ 3_	.	8E\	-in-	mf	8B-X\	-a-	.	8g\	-a-	.	4r	.	.	8B-/L	.	8g/L	.	[4b-X\	.	.	.	.	.	4r	.	4gg\	.	4bb-X\	.
8D\J	.	.	8D\	-tu-	.	8B-\	-de-	.	8g\	-de-	.	.	.	.	8d/J	.	8g/J	.	.	.	.	.	.	.	.	.	.	.	.	.
=40	=40	=40	=40	=40	=40	=40	=40	=40	=40	=40	=40	=40	=40	=40	=40	=40	=40	=40	=40	=40	=40	=40	=40	=40	=40	=40	=40	=40	=40	=40
!LO:LB:g=original	!	!	!	!	!	!	!	!	!	!	!	!LO:TX:a:t=1	!	!	!	!	!	!	!	!	!	!	!	!	!	!	!	!	!LO:LB:g=original	!
8C\	7_ 3	.	8C/	-a-	.	8r	.	.	4b-\	clau-	.	2r	.	.	8e\L	.	8e/L	.	8b-\L]	.	.	.	.	.	8r	.	8gg\L	.	4bb-\	.
16D\LL	_ 3	.	16D\LL	-de-	.	16F/	in-	.	.	.	.	.	.	.	8B-X\J	.	16f/L	.	16dd\L	.	.	.	.	.	(16dd\LL	.	16ff\L	.	.	.
16E\JJ	_ 3	.	16E\JJ	.	.	16G/	-tu-	.	.	.	.	.	.	.	.	.	16g/JJ	.	16cc\JJ	.	.	.	.	.	16cc\JJ)	.	16ee\JJ	.	.	.
8F\L	_ 3	.	8F\	-clau-	.	8A\	-a-	.	8a\L	-sit-	.	.	.	.	8A\L	.	8f/L	.	8a\L	.	.	.	.	.	8cc\	.	8ff\	.	8aa\	.
8D\J	6n	.	8D\	-sit-	.	8Bn\	-de	.	8f\J	.	.	.	.	.	8d\J	.	8b-X/J	.	8ff\J	.	.	.	.	.	8r	.	8r	.	8r	.
=41	=41	=41	=41	=41	=41	=41	=41	=41	=41	=41	=41	=41	=41	=41	=41	=41	=41	=41	=41	=41	=41	=41	=41	=41	=41	=41	=41	=41	=41	=41
!	!	!	!	!	!	!	!	!	!	!	!	!	!	!	!LO:LB:g=original	!	!	!	!	!	!	!	!	!	!	!	!	!	!	!
2E\	6_ 4_	.	4E\	-vis-	.	8.c\	clau-	.	4r	.	.	8r	.	.	8c\	.	8a/L	.	16ff\LL	.	4r	.	4r	.	8r	.	8.r	.	8r	.
.	.	.	.	.	.	.	.	.	.	.	.	.	.	.	.	.	.	.	16ee\	.	.	.	.	.	.	.	.	.	.	.
.	.	.	.	.	.	.	.	.	.	.	.	16a\	clau-	.	16r	.	16c/L	.	16a\	.	.	.	.	.	8bX\L	.	.	.	16aa\LL	.
.	.	.	.	.	.	16Bn\k	-sit-	.	.	.	.	16bn\	-sit-	.	16Bn/	.	16d/JJ	.	16bn\JJ	.	.	.	.	.	.	.	16dd\	.	16bbn\JJ	.
.	7 5 #	.	4E\	-ce-	.	8A\	-vis-	.	8e\	-vis-	.	8b\	-vis-	.	8e\L	.	8e/L	.	8cc\L	.	8r	.	8r	.	8a\	.	4een\	.	8ccc\L	.
.	.	.	.	.	.	8G#X\	-ce-	.	8d\	-ce-	.	8b\	-ce-	.	8g#X\J	.	8d/J	.	8b\J	.	8c/	.	8g\	.	8g#X\J	.	.	.	8bb\J	.
=42	=42	=42	=42	=42	=42	=42	=42	=42	=42	=42	=42	=42	=42	=42	=42	=42	=42	=42	=42	=42	=42	=42	=42	=42	=42	=42	=42	=42	=42	=42
!	!	!	!	!	!	!LO:LB:g=original	!	!	!	!	!	!LO:LB:g=original	!	!	!	!	!	!	!	!	!	!	!	!	!	!	!	!	!	!
4AA/	3n	.	4AA/	-ra	.	4A\	-ra	.	4c\	-ra	.	4a\	-ra	.	8a\	.	8c/	.	8a/	.	4A/	.	4f\	.	8a\	.	8cc\	.	8aa\	.
.	.	.	.	.	.	.	.	.	.	.	.	.	.	.	8r	.	8r	.	16Bn/LL	.	.	.	.	.	8r	.	8r	.	8r	.
.	.	.	.	.	.	.	.	.	.	.	.	.	.	.	.	.	.	.	16c/JJ	.	.	.	.	.	.	.	.	.	.	.
8r	.	.	4r	.	.	4r	.	.	4r	.	.	4r	.	.	8r	.	8r	.	16d/L	.	4r	.	4r	.	8r	.	8r	.	8r	.
.	.	.	.	.	.	.	.	.	.	.	.	.	.	.	.	.	.	.	16c/J	.	.	.	.	.	.	.	.	.	.	.
!	!	!LO:HP:t=po	!	!	!	!	!	!	!	!	!	!	!	!	!	!	!	!	!	!	!	!	!	!	!	!	!	!	!	!
8G\	4 3	p	.	.	.	.	.	.	.	.	.	.	.	.	8c\	.	8B-/	.	8et/	.	.	.	.	.	8b-X\	.	8ee\	.	8gg\	.
=43	=43	=43	=43	=43	=43	=43	=43	=43	=43	=43	=43	=43	=43	=43	=43	=43	=43	=43	=43	=43	=43	=43	=43	=43	=43	=43	=43	=43	=43	=43
!	!	!	!	!	!	!	!	!LO:DY:b	!	!	!LO:DY:b	!	!	!	!	!	!	!	!LO:LB:g=original	!	!LO:LB:g=original	!	!LO:LB:g=original	!	!LO:LB:g=original	!	!LO:LB:g=original	!	!	!
8F\	3	.	(4F\	fac-	.	(4c\	fac-	p	(4f\	fac-	p	2a\	fac-	<	4c\	.	4A/	.	4f/	.	8r	.	8r	.	4a\	.	4ff\	.	4ff\	.
8r	.	.	.	.	.	.	.	.	.	.	.	.	.	[	.	.	.	.	.	.	4c/	.	4g\	.	.	.	.	.	.	.
8D\	#	.	4D\)	.	.	4d\)	.	.	4f#X\)	tus-	.	.	.	>	4r	.	4r	.	4r	.	.	.	.	.	4r	.	4r	.	4r	.
8r	.	.	.	.	.	.	.	.	.	.	.	.	.	]	.	.	.	.	.	.	8f\	.	8a\	.	.	.	.	.	.	.
=44	=44	=44	=44	=44	=44	=44	=44	=44	=44	=44	=44	=44	=44	=44	=44	=44	=44	=44	=44	=44	=44	=44	=44	=44	=44	=44	=44	=44	=44	=44
!	!	!	!LO:LB:g=original	!	!	!	!	!	!LO:LB:g=original	!	!	!	!	!	!	!	!	!	!LO:PB:g=original	!	!	!	!	!	!	!	!	!	!	!
8G\	-	.	4G\	-tus	.	4d\	-tus	.	4g\	-es	.	4b-\	-tus	.	8d\	.	8r	.	8r	.	2c/	.	2g\	.	8r	.	4.een\	.	8r	.
8r	.	.	.	.	.	.	.	.	.	.	.	.	.	.	4e\	.	4g^>/	.	8b-\	.	.	.	.	.	4g^>/	.	.	.	4gg^\	.
!	!	!	!	!	!	!	!	!	!	!	!	!	!	!	!	!	!	!	!LO:TX:a:t=problem:mixed beam	!	!	!	!	!	!	!	!	!	!	!
4r	.	.	4r	.	.	4r	.	.	4r	.	.	4r	.	.	.	.	.	.	16dd\LL	.	.	.	.	.	.	.	.	.	.	.
.	.	.	.	.	.	.	.	.	.	.	.	.	.	.	.	.	.	.	16e/	.	.	.	.	.	.	.	.	.	.	.
.	.	.	.	.	.	.	.	.	.	.	.	.	.	.	8f\	.	8a/	.	16f/	.	.	.	.	.	8a/	.	8ff\	.	8aa\	.
.	.	.	.	.	.	.	.	.	.	.	.	.	.	.	.	.	.	.	16cc/JJ	.	.	.	.	.	.	.	.	.	.	.
=45	=45	=45	=45	=45	=45	=45	=45	=45	=45	=45	=45	=45	=45	=45	=45	=45	=45	=45	=45	=45	=45	=45	=45	=45	=45	=45	=45	=45	=45	=45
!LO:TX:a:t=1	!	!	!LO:TX:a:t=1	!	!	!LO:TX:a:t=1	!	!	!LO:TX:a:t=1	!	!	!LO:TX:a:t=1	!	!	!	!	!LO:LB:g=original	!	!	!	!	!	!	!	!	!	!	!	!	!
2r	.	.	2r	.	.	2r	.	.	2r	.	.	2r	.	.	8g\L	.	8g/L	.	(16b-\LL	.	4.F/	.	4.f\	.	2cc\	.	8r	.	2bb-\	.
.	.	.	.	.	.	.	.	.	.	.	.	.	.	.	.	.	.	.	16gg\)	.	.	.	.	.	.	.	.	.	.	.
.	.	.	.	.	.	.	.	.	.	.	.	.	.	.	16c\L	.	16e/L	.	(16gg\	.	.	.	.	.	.	.	8gg\L	.	.	.
.	.	.	.	.	.	.	.	.	.	.	.	.	.	.	16d\JJ	.	16f/JJ	.	16ff\JJ)	.	.	.	.	.	.	.	.	.	.	.
.	.	.	.	.	.	.	.	.	.	.	.	.	.	.	8e\L	.	8g/L	.	(16ff\LL	.	.	.	.	.	.	.	8aa\	.	.	.
.	.	.	.	.	.	.	.	.	.	.	.	.	.	.	.	.	.	.	16ee\)	.	.	.	.	.	.	.	.	.	.	.
.	.	.	.	.	.	.	.	.	.	.	.	.	.	.	8g\J	.	8b-/J	.	(16ee\	.	8r	.	8r	.	.	.	8bb-\J	.	.	.
.	.	.	.	.	.	.	.	.	.	.	.	.	.	.	.	.	.	.	16dd\JJ)	.	.	.	.	.	.	.	.	.	.	.
=46	=46	=46	=46	=46	=46	=46	=46	=46	=46	=46	=46	=46	=46	=46	=46	=46	=46	=46	=46	=46	=46	=46	=46	=46	=46	=46	=46	=46	=46	=46
4.F\	4n 2#	.	4F^\	fac-	.	4d^\	fac-	.	4g#X^\	ho-	.	4bn^\	fac-	.	8f\L	.	4g#X^>/	.	(4bn\	.	4r	.	4r	.	(4dd^<\	.	4bb-\	.	(4bbn^<\	.
.	5 3	.	.	.	.	.	.	.	.	.	.	.	.	.	8d\	.	.	.	.	.	.	.	.	.	.	.	.	.	.	.
.	.	.	8F\	-tus-	.	8c\	-tus-	.	8a\	-mo-	.	8cc\	-tus-	.	8c\J	.	8a/	.	8cc\)	.	4c/	.	4g\	.	8cc\)	.	8aa\	.	8ccc\)	.
!	!	!	!	!	!	!	!	!	!LO:TX:a:t=problem:f wpisany na pięciolinii	!	!	!	!	!	!	!	!	!	!	!	!	!	!	!	!	!	!	!	!	!
8A\	6 6	.	16A\	-ho-	.	16c\	-ho-	.	16a\	-al-	f	16ff\	-ho-	.	8r	.	8a/	.	8ff\	.	.	.	.	.	8r	.	8r	.	8r	.
.	.	.	16A\	-mo-	.	16c\	-mo-	.	16a\	-le-	.	16ff\	-mo-	.	.	.	.	.	.	.	.	.	.	.	.	.	.	.	.	.
=47	=47	=47	=47	=47	=47	=47	=47	=47	=47	=47	=47	=47	=47	=47	=47	=47	=47	=47	=47	=47	=47	=47	=47	=47	=47	=47	=47	=47	=47	=47
!LO:LB:g=original	!	!	!	!	!	!	!	!	!	!	!	!	!	!	!LO:LB:g=original	!	!	!	!	!	!LO:TX:a:t=3	!	!LO:TX:a:t=3	!	!	!	!	!	!LO:LB:g=original	!
4B-\	6 5	.	8.B-\	-al-	.	8.d\	-al-	.	8g\	-lu-	.	8.g\	-al-	.	8d\	.	8g/	.	8g/	.	1r	.	1r	.	4r	.	4r	.	4r	.
.	.	.	.	.	.	.	.	.	4f\	.	.	.	.	.	8r	.	8r	.	8r	.	.	.	.	.	.	.	.	.	.	.
.	.	.	16B-\k	-le-	.	16d\k	-le-	.	.	.	.	16g\k	-le-	.	.	.	.	.	.	.	.	.	.	.	.	.	.	.	.	.
4c\	7	.	4c\	-lu-	.	4B-\	-lu-	.	.	.	.	4cc\	-lu-	.	4B-^>/	.	8f/L	.	4cc\	f	.	.	.	.	4b-\	.	4cc\	.	4ccc\	.
.	.	.	.	.	.	.	.	.	8e\	.	.	.	.	.	.	.	8e/J	.	.	.	.	.	.	.	.	.	.	.	.	.
=48	=48	=48	=48	=48	=48	=48	=48	=48	=48	=48	=48	=48	=48	=48	=48	=48	=48	=48	=48	=48	=48	=48	=48	=48	=48	=48	=48	=48	=48	=48
!LO:TX:b:i:t=Tasto	!	!	!	!	!	!	!	!	!	!	!	!	!	!	!	!	!	!	!	!	!	!	!	!	!	!	!	!	!LO:TX:a:t=1	!
(2F\	.	.	4F\	-ja	.	4A\	-ja	.	4f\	-ja	.	4a\	-ja	.	4A/	p	8f/L	.	(16a/LL	p	.	.	.	.	8a\L	.	(8cc\L	p	2r	.
.	.	.	.	.	.	.	.	.	.	.	.	.	.	.	.	.	.	.	16c/	.	.	.	.	.	.	.	.	.	.	.
.	.	.	.	.	.	.	.	.	.	.	.	.	.	.	.	.	8c/	.	16f/	.	.	.	.	.	8cc\	.	8aa\	.	.	.
.	.	.	.	.	.	.	.	.	.	.	.	.	.	.	.	.	.	.	16a/JJ)	.	.	.	.	.	.	.	.	.	.	.
.	.	.	4r	.	.	4r	.	.	4r	.	.	4r	.	.	(<8B-/L	.	8e/	.	(16g/LL	.	.	.	.	.	8b-\	.	8ee\	.	.	.
.	.	.	.	.	.	.	.	.	.	.	.	.	.	.	.	.	.	.	16e/	.	.	.	.	.	.	.	.	.	.	.
.	.	.	.	.	.	.	.	.	.	.	.	.	.	.	8c/J	.	8f/J	.	16f/	.	.	.	.	.	8a\J	.	8ff\J)	.	.	.
.	.	.	.	.	.	.	.	.	.	.	.	.	.	.	.	.	.	.	16a/JJ)	.	.	.	.	.	.	.	.	.	.	.
=49	=49	=49	=49	=49	=49	=49	=49	=49	=49	=49	=49	=49	=49	=49	=49	=49	=49	=49	=49	=49	=49	=49	=49	=49	=49	=49	=49	=49	=49	=49
!	!	!	!LO:LB:g=original	!	!	!LO:LB:g=original	!	!	!LO:TX:a:t=3	!	!	!LO:LB:g=original	!	!	!	!	!	!	!LO:LB:g=original	!	!	!	!	!	!	!	!	!	!	!
!	!	!	!LO:TX:a:t=3	!	!	!LO:TX:a:t=3	!	!	!	!	!	!LO:TX:a:t=3	!	!	!	!	!	!	!	!	!	!	!	!	!	!	!	!	!	!
(<2BB-/)	.	.	1r	.	.	1r	.	.	1r	.	.	1r	.	.	4.d\	.	2g/	.	(16b-/LL	.	2r	.	2r	.	2b-\	.	4.dd\	.	(8dd\L	.
.	.	.	.	.	.	.	.	.	.	.	.	.	.	.	.	.	.	.	16d/)	.	.	.	.	.	.	.	.	.	.	.
.	.	.	.	.	.	.	.	.	.	.	.	.	.	.	.	.	.	.	(16d/	.	.	.	.	.	.	.	.	.	8bb-\	.
.	.	.	.	.	.	.	.	.	.	.	.	.	.	.	.	.	.	.	16b-/JJ)	.	.	.	.	.	.	.	.	.	.	.
.	.	.	.	.	.	.	.	.	.	.	.	.	.	.	.	.	.	.	(16b-/LL	.	.	.	.	.	.	.	.	.	8ff#X\	.
.	.	.	.	.	.	.	.	.	.	.	.	.	.	.	.	.	.	.	16g/)	.	.	.	.	.	.	.	.	.	.	.
.	.	.	.	.	.	.	.	.	.	.	.	.	.	.	8d-X\)	.	.	.	(16g/	.	.	.	.	.	.	.	8dd-X\	.	8gg\J)	.
.	.	.	.	.	.	.	.	.	.	.	.	.	.	.	.	.	.	.	16b-/JJ)	.	.	.	.	.	.	.	.	.	.	.
=50	=50	=50	=50	=50	=50	=50	=50	=50	=50	=50	=50	=50	=50	=50	=50	=50	=50	=50	=50	=50	=50	=50	=50	=50	=50	=50	=50	=50	=50	=50
!	!	!	!	!	!	!	!	!	!	!	!	!	!	!	!	!	!	!	!	!	!	!	!	!	!LO:LB:g=original	!	!	!	!	!
8D\L)	.	.	.	.	.	.	.	.	.	.	.	.	.	.	8c\L	.	4g/	.	16dd/LL	.	4r	.	4r	.	4b-\	.	8cc\L	.	8bb-\L	.
.	.	.	.	.	.	.	.	.	.	.	.	.	.	.	.	.	.	.	16e/	.	.	.	.	.	.	.	.	.	.	.
8E\	.	.	.	.	.	.	.	.	.	.	.	.	.	.	8B-X\	.	.	.	16e/	.	.	.	.	.	.	.	16dd\L	.	16ddd\L	.
.	.	.	.	.	.	.	.	.	.	.	.	.	.	.	.	.	.	.	16dd/JJ	.	.	.	.	.	.	.	16ee\JJ	.	16ccc\JJ	.
8F\J	.	.	.	.	.	.	.	.	.	.	.	.	.	.	8c\	.	8f/L	.	16cc/LL	.	4c/	.	4g\	.	8a\L	.	[4ff\	.	8aa\L	.
.	.	.	.	.	.	.	.	.	.	.	.	.	.	.	.	.	.	.	16c/	.	.	.	.	.	.	.	.	.	.	.
8BBn/	.	.	.	.	.	.	.	.	.	.	.	.	.	.	8dn\J	.	[8f/J	.	16f/	.	.	.	.	.	8cc\J	.	.	.	8aa\J	.
.	.	.	.	.	.	.	.	.	.	.	.	.	.	.	.	.	.	.	16a/JJ	.	.	.	.	.	.	.	.	.	.	.
=51	=51	=51	=51	=51	=51	=51	=51	=51	=51	=51	=51	=51	=51	=51	=51	=51	=51	=51	=51	=51	=51	=51	=51	=51	=51	=51	=51	=51	=51	=51
2C/	.	.	2r	.	.	2r	.	.	2r	.	.	2r	.	.	[4c\	.	8f/L]	.	2gT/	.	8A/	.	8f\	.	4.cc\	.	8ff\L]	.	2ggT\	.
.	.	.	.	.	.	.	.	.	.	.	.	.	.	.	.	.	16e/L	.	.	.	8r	.	8r	.	.	.	16ee\L	.	.	.
.	.	.	.	.	.	.	.	.	.	.	.	.	.	.	.	.	16d/JJ	.	.	.	.	.	.	.	.	.	16dd\JJ	.	.	.
.	.	.	.	.	.	.	.	.	.	.	.	.	.	.	16c\LL]	.	4e/	.	.	.	4F/	.	4f\	.	.	.	4ee\	.	.	.
.	.	.	.	.	.	.	.	.	.	.	.	.	.	.	16B-\	.	.	.	.	.	.	.	.	.	.	.	.	.	.	.
.	.	.	.	.	.	.	.	.	.	.	.	.	.	.	16G\	.	.	.	.	.	.	.	.	.	8b-\	.	.	.	.	.
.	.	.	.	.	.	.	.	.	.	.	.	.	.	.	16B-\JJ	.	.	.	.	.	.	.	.	.	.	.	.	.	.	.
=52	=52	=52	=52	=52	=52	=52	=52	=52	=52	=52	=52	=52	=52	=52	=52	=52	=52	=52	=52	=52	=52	=52	=52	=52	=52	=52	=52	=52	=52	=52
!	!	!	!	!	!	!	!	!	!	!	!	!	!	!	!LO:TX:a:t=problem:mixed beam	!	!LO:LB:g=original	!	!	!	!	!	!	!	!	!	!	!	!	!
8FF/	.	.	8r	.	.	8r	.	.	8r	.	.	8r	.	.	8A/L	f	8f/	f	8f/	.	4r	.	4r	.	8a\	.	8ff\	.	8ff\	.
!	!	!	!	!	!LO:DY:b	!	!	!	!	!	!	!	!	!	!	!	!	!	!	!	!	!	!	!	!	!	!	!	!	!
8A\J	6_ 6_	f	8A\	Post-	f	8c\	Post-	.	8f\	Post-	.	8cc\	Post-	.	8f\J	.	8a/	.	8cc/	f	.	.	.	.	8r	.	8r	.	8r	.
*	*	*	*	*	*	*	*	*	*	*	*	*	*	*	*	*	*tremolo	*	*	*	*	*	*	*	*	*	*	*	*	*
!	!	!	!	!	!	!	!	!	!	!	!	!	!	!	!	!	!LO:TX:a:t=problem:cztery kropki nad tremolo	!	!	!	!	!	!	!	!	!	!	!	!	!
4A-X\	.	.	4A-X\	-par-	.	4c\	-par-	.	4f\	-par-	.	[4ff\	-par-	.	16f\LL	.	16cc'\LL	.	4ff\	.	4c/	.	4g\	.	4cc\	.	4ff\	.	[4fff\	.
.	.	.	.	.	.	.	.	.	.	.	.	.	.	.	16f\	.	16cc'\	.	.	.	.	.	.	.	.	.	.	.	.	.
.	.	.	.	.	.	.	.	.	.	.	.	.	.	.	16f\	.	16cc'\	.	.	.	.	.	.	.	.	.	.	.	.	.
.	.	.	.	.	.	.	.	.	.	.	.	.	.	.	16f\JJ	.	16cc'\JJ	.	.	.	.	.	.	.	.	.	.	.	.	.
*	*	*	*	*	*	*	*	*	*	*	*	*	*	*	*	*	*Xtremolo	*	*	*	*	*	*	*	*	*	*	*	*	*
=53	=53	=53	=53	=53	=53	=53	=53	=53	=53	=53	=53	=53	=53	=53	=53	=53	=53	=53	=53	=53	=53	=53	=53	=53	=53	=53	=53	=53	=53	=53
!	!	!	!LO:LB:g=original	!	!	!	!	!	!	!	!	!	!	!	!LO:LB:g=original	!	!	!	!LO:TX:a:t=problem:mixed beam	!	!LO:LB:g=original	!	!LO:LB:g=original	!	!	!	!LO:LB:g=original	!	!	!
!	!	!	!	!	!	!	!	!	!	!	!	!	!	!	!	!	!	!	!	!	!LO:TX:a:t=1	!	!LO:TX:a:t=1	!	!	!	!	!	!	!
8G\L	7_	.	8G\	tum-	.	8c\	tum-	.	2g\	tum-	.	4ff\]	.	.	8g\L	.	16g/KL	.	(16ff\LL	.	2r	.	2r	.	[2cc\	.	2gg\	.	4fff\]	.
.	.	.	.	.	.	.	.	.	.	.	.	.	.	.	.	.	8g/	.	16g/)	.	.	.	.	.	.	.	.	.	.	.
16An\L	.	.	16A\LL	post-	.	8r	.	.	.	.	.	.	.	.	16a\L	.	.	.	16ff'\	.	.	.	.	.	.	.	.	.	.	.
16Bn\JJ	.	.	16Bn\JJ	.	.	.	.	.	.	.	.	.	.	.	16bn\JJ	.	16g/Jk	.	16ff'\JJ	.	.	.	.	.	.	.	.	.	.	.
8c\L	3_	.	8c\	-par-	.	8c\	par-	.	.	.	.	4ee\	-tum-	.	[4cc\	.	16g/LL	.	(16ee\LL	.	.	.	.	.	.	.	.	.	[4eee\	.
.	.	.	.	.	.	.	.	.	.	.	.	.	.	.	.	.	16ee/	.	16ccc\)	.	.	.	.	.	.	.	.	.	.	.
8E\J	.	.	8E\	-tum	.	8c\	-tum-	.	.	.	.	.	.	.	.	.	16ee/	.	(16ccc\	.	.	.	.	.	.	.	.	.	.	.
.	.	.	.	.	.	.	.	.	.	.	.	.	.	.	.	.	16g/JJ	.	16ee\JJ)	.	.	.	.	.	.	.	.	.	.	.
=54	=54	=54	=54	=54	=54	=54	=54	=54	=54	=54	=54	=54	=54	=54	=54	=54	=54	=54	=54	=54	=54	=54	=54	=54	=54	=54	=54	=54	=54	=54
!LO:LB:g=original	!	!	!	!	!	!	!	!	!	!	!	!	!	!	!	!	!	!	!LO:LB:g=original	!	!	!	!	!	!	!	!	!	!	!
!	!	!	!	!	!	!	!	!	!	!	!	!	!	!	!	!	!	!	!LO:TX:a:t=problem:mixed beam	!	!	!	!	!	!	!	!	!	!	!
2F\	7	.	2F\	-Vir-	.	8c\L	-Vir-	.	4.a\	-Vir-	.	4ee\	-Vir-	.	8cc\L]	.	16f/KL 16a	.	(16ee\LL	.	4r	.	4r	.	4cc\]	.	2aa\	.	4eee\]	.
.	.	.	.	.	.	.	.	.	.	.	.	.	.	.	.	.	8f/ 8a	.	16f/)	.	.	.	.	.	.	.	.	.	.	.
.	.	.	.	.	.	16d\L	.	.	.	.	.	.	.	.	16dd\L	.	.	.	16ee'\	.	.	.	.	.	.	.	.	.	.	.
.	.	.	.	.	.	16c\JJ	.	.	.	.	.	.	.	.	16cc\JJ	.	16f/Jk 16a	.	16ee'\JJ	.	.	.	.	.	.	.	.	.	.	.
.	.	.	.	.	.	4Bn\	go-	.	.	.	.	8dd\	-go-	.	(4bn\	.	16f/LL	.	(16dd\LL	.	4A/	.	4a\	.	[4bX\	.	.	.	[4ddd\	.
.	.	.	.	.	.	.	.	.	.	.	.	.	.	.	.	.	16dd/	.	16bbn\)	.	.	.	.	.	.	.	.	.	.	.
.	.	.	.	.	.	.	.	.	16bn\	-go-	.	8dd\	-in-	.	.	.	16dd/	.	(16bb\	.	.	.	.	.	.	.	.	.	.	.
.	.	.	.	.	.	.	.	.	16a\	.	.	.	.	.	.	.	16f/JJ	.	16dd\JJ)	.	.	.	.	.	.	.	.	.	.	.
=55	=55	=55	=55	=55	=55	=55	=55	=55	=55	=55	=55	=55	=55	=55	=55	=55	=55	=55	=55	=55	=55	=55	=55	=55	=55	=55	=55	=55	=55	=55
!	!	!	!	!	!	!	!	!	!	!	!	!	!	!	!	!	!	!	!	!	!	!	!	!	!	!	!	!	!LO:LB:g=original	!
8E\L	7 #	.	8E\	-go-	.	4B-\	-in-	.	8g#X\	-vir-	.	8dd\L	-vi-	.	4b-\)	.	16g#X/KL	.	(16dd/LL	.	8A/	.	8a\	.	4b-\]	.	4gg#X\	.	4ddd\]	.
.	.	.	.	.	.	.	.	.	.	.	.	.	.	.	.	.	8g#/	.	16e/)	.	.	.	.	.	.	.	.	.	.	.
16F#X\L	.	.	16F#X\LL	-in-	.	.	.	.	16f#X\	-go-	.	8ee\J	.	.	.	.	.	.	16dd'/	.	8r	.	8r	.	.	.	.	.	.	.
16G#X\JJ	.	.	16G#X\JJ	.	.	.	.	.	16e\	-in-	.	.	.	.	.	.	16g#/Jk	.	16dd'/JJ	.	.	.	.	.	.	.	.	.	.	.
!LO:TX:a:t=problem:mixed beam	!	!	!	!	!	!	!	!	!	!	!	!	!	!	!	!	!	!	!	!	!	!	!	!	!	!	!	!	!	!
8A\L	3#	.	8A\	-vi-	.	8A\	-vi-	.	8a\	-vi-	.	4cc#X\	-o-	.	8a\L	.	16e/LL	.	(16cc#X\LL	.	4r	.	4r	.	4cc#X\	.	8aa\L	.	4ccc#X\	.
.	.	.	.	.	.	.	.	.	.	.	.	.	.	.	.	.	16cc#X/	.	16aa\)	.	.	.	.	.	.	.	.	.	.	.
8AA/J	7	.	8AA/	-o-	.	8A\	-o-	.	8gn\	-o-	.	.	.	.	8e\J	.	16cc#/	.	(16aa\	.	.	.	.	.	.	.	8gg\J	.	.	.
.	.	.	.	.	.	.	.	.	.	.	.	.	.	.	.	.	16gn/JJ	.	16cc#\JJ)	.	.	.	.	.	.	.	.	.	.	.
=56	=56	=56	=56	=56	=56	=56	=56	=56	=56	=56	=56	=56	=56	=56	=56	=56	=56	=56	=56	=56	=56	=56	=56	=56	=56	=56	=56	=56	=56	=56
!	!	!	!	!	!	!	!	!	!	!	!	!	!	!	!	!	!	!	!LO:TX:a:t=problem:mixed beam	!	!	!	!	!	!	!	!	!	!	!
4D\	5-	.	4D\	-la-	.	8A\	-la-	.	4f\	-la-	.	4dd\	-la-	.	8f\	.	16f/LL	.	(16dd\LL	.	2g\	.	2g\	.	8a\	.	4.ff\	.	4ddd\	.
.	.	.	.	.	.	.	.	.	.	.	.	.	.	.	.	.	16a/	.	16f/)	.	.	.	.	.	.	.	.	.	.	.
.	.	.	.	.	.	4B-X\	.	.	.	.	.	.	.	.	4b-X\	.	16f/	.	16dd'\	.	.	.	.	.	8r	.	.	.	.	.
.	.	.	.	.	.	.	.	.	.	.	.	.	.	.	.	.	16f/JJ	.	16dd'\JJ	.	.	.	.	.	.	.	.	.	.	.
*	*	*	*	*	*	*	*	*	*	*	*	*	*	*	*	*	*tremolo	*	*	*	*	*	*	*	*	*	*	*	*	*
8d\L	#_	.	8d\L	-ta-	.	.	.	.	4f#X\	-ta-	.	4dd\	-ta-	.	.	.	16f#X/LL	.	16dd\LL	.	.	.	.	.	4dd\	.	.	.	4aa\	.
.	.	.	.	.	.	.	.	.	.	.	.	.	.	.	.	.	16f#/	.	16f#X\	.	.	.	.	.	.	.	.	.	.	.
8c\J	5	.	8c\J	.	.	8A\	-ta-	.	.	.	.	.	.	.	8a\	.	16f#/	.	16dd\	.	.	.	.	.	.	.	8ff#X\	.	.	.
.	.	.	.	.	.	.	.	.	.	.	.	.	.	.	.	.	16f#/JJ	.	16dd\JJ	.	.	.	.	.	.	.	.	.	.	.
=57	=57	=57	=57	=57	=57	=57	=57	=57	=57	=57	=57	=57	=57	=57	=57	=57	=57	=57	=57	=57	=57	=57	=57	=57	=57	=57	=57	=57	=57	=57
!	!	!	!	!	!	!LO:LB:g=original	!	!	!	!	!	!	!	!	!	!	!LO:PB:g=original	!	!	!	!	!	!	!	!LO:LB:g=original	!	!	!	!	!
4Bn\	6 5	.	8.Bn\	-per-	.	8.G/	-per-	.	8.g\	-per-	.	8.dd\	-per-	.	8d\L	.	16g/KL	.	16bn\LL	.	8c/	.	8g\	.	4dd\	.	8gg\L	.	4gg\	.
.	.	.	.	.	.	.	.	.	.	.	.	.	.	.	.	.	8g/	.	16dd\	.	.	.	.	.	.	.	.	.	.	.
.	.	.	.	.	.	.	.	.	.	.	.	.	.	.	8d\J	.	.	.	16cc#X\	.	8r	.	8r	.	.	.	8dd\J	.	.	.
.	.	.	16B\k	-man-	.	16G/k	-man-	.	16g\k	-man-	.	16dd\k	-man-	.	.	.	8g/	.	16dd\JJ	.	.	.	.	.	.	.	.	.	.	.
!	!	!	!	!	!	!	!	!	!	!	!	!	!	!	!	!	!	!	!LO:LB:g=original	!	!	!	!	!	!	!	!	!	!	!
!	!	!	!	!	!	!	!	!	!	!	!	!	!	!	!	!	!	!	!LO:TX:a:t=problem:mixed beam	!	!	!	!	!	!	!	!	!	!	!
4G\	7	.	4G\	-sis-	.	4Bn\	-sis-	.	4g\	-sis-	.	8gg\	-us-	.	4bn\	.	.	.	16gg\LL	.	8r	.	8r	.	4dd\	.	8gg\L	.	4bbn\	.
.	.	.	.	.	.	.	.	.	.	.	.	.	.	.	.	.	8g/	.	16g/	.	.	.	.	.	.	.	.	.	.	.
.	.	.	.	.	.	.	.	.	.	.	.	8ff\	.	.	.	.	.	.	16ff\	.	8c/	.	8g\	.	.	.	8ffn\J	.	.	.
.	.	.	.	.	.	.	.	.	.	.	.	.	.	.	.	.	16g/Jk	.	16ff\JJ	.	.	.	.	.	.	.	.	.	.	.
=58	=58	=58	=58	=58	=58	=58	=58	=58	=58	=58	=58	=58	=58	=58	=58	=58	=58	=58	=58	=58	=58	=58	=58	=58	=58	=58	=58	=58	=58	=58
!	!	!	!LO:LB:g=original	!	!	!	!	!	!	!	!	!LO:LB:g=original	!	!	!	!	!	!	!LO:TX:a:t=problem:mixed beam	!LO:HP:a	!LO:TX:a:i:t=Solo	!	!LO:TX:a:i:t=Solo	!	!	!	!	!	!	!
4c\	3	.	4c\	-ti	.	4c\	-ti	.	4g\	-ti	.	4ee\	-ti	.	8cc\	.	8g/	.	8ee\L	<	4A/	.	4f\	.	8cc\	.	8ee\	.	8ccc\L	.
.	.	.	.	.	.	.	.	.	.	.	.	.	.	.	8r	.	8r	.	16g/L	.	.	.	.	.	8r	.	8r	.	(16gg\L	.
.	.	.	.	.	.	.	.	.	.	.	.	.	.	.	.	.	.	.	16a/JJ	.	.	.	.	.	.	.	.	.	16aa\JJ	.
8r	.	.	4r	.	.	4r	.	.	4r	.	.	4r	.	.	8d/L	.	8f/L	.	16b-\LL	.	8c/L	.	8g\L	.	8dd\L	.	8ff\L	.	16bb-X\LL	.
.	.	.	.	.	.	.	.	.	.	.	.	.	.	.	.	.	.	.	16bn\	.	.	.	.	.	.	.	.	.	16bbn\	.
8C/	7-	.	.	.	.	.	.	.	.	.	.	.	.	.	8B-X/J	.	8e/J	.	16dd\	.	8f/J	.	8a\J	.	8cc\J	.	8ee\J	.	16ddd\	.
.	.	.	.	.	.	.	.	.	.	.	.	.	.	.	.	.	.	.	16cc\JJ	[[	.	.	.	.	.	.	.	.	16ccc\JJ)	.
=59	=59	=59	=59	=59	=59	=59	=59	=59	=59	=59	=59	=59	=59	=59	=59	=59	=59	=59	=59	=59	=59	=59	=59	=59	=59	=59	=59	=59	=59	=59
*	*	*	*	*	*	*	*	*	*	*	*	*	*	*	*tremolo	*	*	*	*tremolo	*	*	*	*	*	*	*	*	*	*	*
!	!	!	!LO:TX:a:t=1	!	!	!LO:TX:a:i:t=Solo	!	!	!LO:TX:a:i:t=Solo	!	!	!LO:TX:a:t=1	!	!	!LO:PB:g=original	!	!	!	!	!	!	!	!	!	!	!	!	!	!	!
4F\	3	p	2r	.	.	4c\	Post-	.	4a\	Post-	.	2r	.	.	8A/LL	p	8f/LL	p	(8a/LL	p	4r	.	4r	.	4a\	.	4ff\	.	4aa\	.
.	.	.	.	.	.	.	.	.	.	.	.	.	.	.	.	.	.	.	.	.	.	.	.	.	.	.	.	.	.	.
.	.	.	.	.	.	.	.	.	.	.	.	.	.	.	8c/	.	8c/	.	8c/)	.	.	.	.	.	.	.	.	.	.	.
.	.	.	.	.	.	.	.	.	.	.	.	.	.	.	.	.	.	.	.	.	.	.	.	.	.	.	.	.	.	.
4r	.	.	.	.	.	8B-\L	-par-	.	8g\	-par-	.	.	.	.	8A/	.	8f/	.	(8a/	.	4A/	.	4f\	.	4r	.	4r	.	4r	.
.	.	.	.	.	.	.	.	.	.	.	.	.	.	.	.	.	.	.	.	.	.	.	.	.	.	.	.	.	.	.
.	.	.	.	.	.	8A\J	.	.	8f\	-tum	.	.	.	.	8c/JJ	.	8c/JJ	.	8c/JJ)	.	.	.	.	.	.	.	.	.	.	.
.	.	.	.	.	.	.	.	.	.	.	.	.	.	.	.	.	.	.	.	.	.	.	.	.	.	.	.	.	.	.
=60	=60	=60	=60	=60	=60	=60	=60	=60	=60	=60	=60	=60	=60	=60	=60	=60	=60	=60	=60	=60	=60	=60	=60	=60	=60	=60	=60	=60	=60	=60
!	!	!	!LO:PB:g=original	!	!	!	!	!	!LO:LB:g=original	!	!	!LO:PB:g=original	!	!	!	!	!	!	!	!	!	!	!	!	!LO:TX:a:t=3	!	!LO:TX:a:i:t=Solo	!	!LO:TX:a:i:t=Solo	!
!	!	!	!LO:TX:a:t=Solo	!	!	!	!	!	!	!	!	!	!	!	!	!	!	!	!	!	!	!	!	!	!	!	!	!	!	!
4FF/	.	.	4F\	Post-	.	4A\	-tum-	.	4c\	par-	.	8.ff\L	Post-	.	8A/LL	.	8f/LL	.	(8a/LL	.	4c/	.	4g\	.	1r	.	4cc\	.	4aa\	.
.	.	.	.	.	.	.	.	.	.	.	.	.	.	.	.	.	.	.	.	.	.	.	.	.	.	.	.	.	.	.
.	.	.	.	.	.	.	.	.	.	.	.	.	.	.	8c/	.	8c/	.	8c/)	.	.	.	.	.	.	.	.	.	.	.
.	.	.	.	.	.	.	.	.	.	.	.	16ee\Jk	.	.	.	.	.	.	.	.	.	.	.	.	.	.	.	.	.	.
4r	.	.	8B-\L	-par-	.	4r	.	.	4f\	-tum-	.	8dd\	-par-	.	8A/	.	8f/	.	(8a/	.	8f\L	.	8a\L	.	.	.	8dd\L	.	8bb-\L	.
.	.	.	.	.	.	.	.	.	.	.	.	.	.	.	.	.	.	.	.	.	.	.	.	.	.	.	.	.	.	.
.	.	.	8A\J	.	.	.	.	.	.	.	.	8cc\	-tum-	.	8c/JJ	.	8c/JJ	.	8c/JJ)	.	8c\J	.	8g\J	.	.	.	8cc\J	.	8aa\J	.
.	.	.	.	.	.	.	.	.	.	.	.	.	.	.	.	.	.	.	.	.	.	.	.	.	.	.	.	.	.	.
=61	=61	=61	=61	=61	=61	=61	=61	=61	=61	=61	=61	=61	=61	=61	=61	=61	=61	=61	=61	=61	=61	=61	=61	=61	=61	=61	=61	=61	=61	=61
!LO:LB:g=original	!	!	!	!	!	!LO:PB:g=original	!	!	!	!	!	!	!	!	!	!	!	!	!	!	!LO:LB:g=original	!	!LO:LB:g=original	!	!	!	!LO:TX:a:t=1	!	!LO:TX:a:t=1	!
4C/	.	.	4G\	-tum-	.	4B-\	-post-	.	4g\	-Vir-	.	16b-\L	-Vir-	.	8G/LL	.	8e/LL	.	(8b-/LL	.	4r	.	4r	.	.	.	2r	.	2r	.
.	.	.	.	.	.	.	.	.	.	.	.	16cc\J	.	.	.	.	.	.	.	.	.	.	.	.	.	.	.	.	.	.
.	.	.	.	.	.	.	.	.	.	.	.	8b-\	-go-	.	8c/	.	8c/	.	8c/)	.	.	.	.	.	.	.	.	.	.	.
.	.	.	.	.	.	.	.	.	.	.	.	.	.	.	.	.	.	.	.	.	.	.	.	.	.	.	.	.	.	.
4r	.	.	4r	.	.	8A\	-par-	.	8f\	-go-	.	4r	.	.	8G/	.	8e/	.	(8b-/	.	8A/L	.	8f\L	.	.	.	.	.	.	.
.	.	.	.	.	.	.	.	.	.	.	.	.	.	.	.	.	.	.	.	.	.	.	.	.	.	.	.	.	.	.
.	.	.	.	.	.	8G\	-tum-	.	8e\	-in	.	.	.	.	8c/JJ	.	8c/JJ	.	8c/JJ)	.	8c/J	.	8g\J	.	.	.	.	.	.	.
.	.	.	.	.	.	.	.	.	.	.	.	.	.	.	.	.	.	.	.	.	.	.	.	.	.	.	.	.	.	.
=62	=62	=62	=62	=62	=62	=62	=62	=62	=62	=62	=62	=62	=62	=62	=62	=62	=62	=62	=62	=62	=62	=62	=62	=62	=62	=62	=62	=62	=62	=62
!	!	!	!	!	!	!	!	!	!	!	!	!	!	!	!	!	!	!	!	!	!	!	!	!	!	!	!	!	!LO:PB:g=original	!
4C/	.	.	4C/	-post-	.	4c\	-Vir-	.	4e\	-vi-	.	8.gg\L	-Vir-	.	8G/LL	.	8e/LL	.	(8b-/LL	.	2f\	f	2a\	f	2r	.	4gg\	.	4bb-\	.
.	.	.	.	.	.	.	.	.	.	.	.	.	.	.	.	.	.	.	.	.	.	.	.	.	.	.	.	.	.	.
.	.	.	.	.	.	.	.	.	.	.	.	.	.	.	8c/	.	8c/	.	8c/)	.	.	.	.	.	.	.	.	.	.	.
.	.	.	.	.	.	.	.	.	.	.	.	16ee\Jk	.	.	.	.	.	.	.	.	.	.	.	.	.	.	.	.	.	.
4r	.	.	8A\	-par-	.	8A\	-go-	.	8f\	-o-	.	8cc\	-go-	.	8G/	.	8e/	.	(8b-/	.	.	.	.	.	.	.	8ff\L	.	8aa\L	.
.	.	.	.	.	.	.	.	.	.	.	.	.	.	.	.	.	.	.	.	.	.	.	.	.	.	.	.	.	.	.
.	.	.	8G\	-tum-	.	8B-\	-in-	.	8e\	-la-	.	8cc\	-in-	.	8c/JJ	.	8c/JJ	.	8c/JJ)	.	.	.	.	.	.	.	8ee\J	.	8gg\J	.
.	.	.	.	.	.	.	.	.	.	.	.	.	.	.	.	.	.	.	.	.	.	.	.	.	.	.	.	.	.	.
=63	=63	=63	=63	=63	=63	=63	=63	=63	=63	=63	=63	=63	=63	=63	=63	=63	=63	=63	=63	=63	=63	=63	=63	=63	=63	=63	=63	=63	=63	=63
!	!	!	!	!	!	!	!	!LO:DY:b	!	!	!	!	!	!	!	!	!	!	!	!	!	!	!	!	!LO:PB:g=original	!	!LO:LB:g=original	!	!	!
8r	.	.	8r	.	.	4A\	-vi-	f	4f\	-ta-	.	2aa\	-vi-	.	4A/	.	16f`/LL	.	16a/LL	f	2g\	.	2g\	.	4cc\	.	4ff\	.	4aa\	.
.	.	.	.	.	.	.	.	.	.	.	.	.	.	.	.	.	16A`/	.	16c/	.	.	.	.	.	.	.	.	.	.	.
!	!	!	!	!	!LO:DY:b	!	!	!	!	!	!	!	!	!	!	!	!	!	!	!	!	!	!	!	!	!	!	!	!	!
8F\L	8_	f	8F\	-Vir-	f	.	.	.	.	.	.	.	.	.	.	.	16c`/	.	16f/	.	.	.	.	.	.	.	.	.	.	.
.	.	.	.	.	.	.	.	.	.	.	.	.	.	.	.	.	16f`/JJ	.	16a/JJ	.	.	.	.	.	.	.	.	.	.	.
!	!	!	!	!	!	!	!	!	!	!	!	!	!	!	!	!	!LO:LB:g=original	!	!LO:LB:g=original	!	!	!	!	!	!	!	!	!	!	!
8G\	.	.	8G\	-go-	.	4f\	-o-	.	4cc\	-per-	.	.	.	.	4a\	f	16a`\LL	.	16cc\LL	.	.	.	.	.	4ff\	.	4aa\	.	4fff\	.
.	.	.	.	.	.	.	.	.	.	.	.	.	.	.	.	.	16cc`\	.	16ff\	.	.	.	.	.	.	.	.	.	.	.
8A\J	.	.	8A\	-in-	.	.	.	.	.	.	.	.	.	.	.	.	16ff`\	.	16aa\	.	.	.	.	.	.	.	.	.	.	.
.	.	.	.	.	.	.	.	.	.	.	.	.	.	.	.	.	16ff`\JJ	.	16aa\JJ	.	.	.	.	.	.	.	.	.	.	.
=64	=64	=64	=64	=64	=64	=64	=64	=64	=64	=64	=64	=64	=64	=64	=64	=64	=64	=64	=64	=64	=64	=64	=64	=64	=64	=64	=64	=64	=64	=64
*tremolo	*	*	*	*	*	*	*	*	*	*	*	*	*	*	*	*	*	*	*	*	*	*	*	*	*	*	*	*	*	*
!	!	!	!	!	!	!	!	!	!	!	!	!	!	!	!	!	!LO:TX:a:t=problem:mixed beam	!	!LO:TX:a:t=problem:mixed beam	!	!	!	!	!	!	!	!	!	!	!
8B-\L	6	.	4B-\	-vi-	.	(2d\	-la-	.	2b-\	-man-	.	2gg\	-o-	.	4b-\	.	16dd\LL	.	16gg\LL	.	4.c/	.	4.g\	.	2gg\	.	2bb-\	.	2ddd\	.
.	.	.	.	.	.	.	.	.	.	.	.	.	.	.	.	.	16G/	.	16B-/	.	.	.	.	.	.	.	.	.	.	.
8B-\	.	.	.	.	.	.	.	.	.	.	.	.	.	.	.	.	16B-/	.	16d/	.	.	.	.	.	.	.	.	.	.	.
.	.	.	.	.	.	.	.	.	.	.	.	.	.	.	.	.	16d/JJ	.	16g/JJ	.	.	.	.	.	.	.	.	.	.	.
8B-\	.	.	4B-\	-o-	.	.	.	.	.	.	.	.	.	.	4dd\	.	16g\LL	.	16b-\LL	.	.	.	.	.	.	.	.	.	.	.
.	.	.	.	.	.	.	.	.	.	.	.	.	.	.	.	.	16b-\	.	16dd\	.	.	.	.	.	.	.	.	.	.	.
8B-\J	.	.	.	.	.	.	.	.	.	.	.	.	.	.	.	.	16dd\	.	16gg\	.	8r	.	8r	.	.	.	.	.	.	.
.	.	.	.	.	.	.	.	.	.	.	.	.	.	.	.	.	16f\JJ	.	16gg\JJ	.	.	.	.	.	.	.	.	.	.	.
*Xtremolo	*	*	*	*	*	*	*	*	*	*	*	*	*	*	*	*	*	*	*	*	*	*	*	*	*	*	*	*	*	*
=65	=65	=65	=65	=65	=65	=65	=65	=65	=65	=65	=65	=65	=65	=65	=65	=65	=65	=65	=65	=65	=65	=65	=65	=65	=65	=65	=65	=65	=65	=65
4c\	6 4	.	4c\	-la-	.	4c\)	.	.	4a\	-sis-	.	4ff\	-la-	.	4cc\	.	16a/LL	.	16ff\LL	.	2f\	ff	2a\	ff	4ff\	.	4aa\	.	4.ccc\	.
.	.	.	.	.	.	.	.	.	.	.	.	.	.	.	.	.	16f/	.	16g\	.	.	.	.	.	.	.	.	.	.	.
.	.	.	.	.	.	.	.	.	.	.	.	.	.	.	.	.	16a/	.	16ff\	.	.	.	.	.	.	.	.	.	.	.
.	.	.	.	.	.	.	.	.	.	.	.	.	.	.	.	.	16a/JJ	.	16ff\JJ	.	.	.	.	.	.	.	.	.	.	.
!	!	!	!	!	!	!	!	!	!	!	!	!	!	!	!LO:TX:a:t=problem:mixed beam	!	!	!	!	!	!	!	!	!	!	!	!	!	!	!
8C/	5 3	.	8C/	-ta-	.	8c\	-ta-	.	8g\	-ti-	.	8ee\	-ta-	.	16cc\LL	.	16g/	.	16ee\LL	.	.	.	.	.	8ee\	.	8gg\	.	.	.
.	.	.	.	.	.	.	.	.	.	.	.	.	.	.	16G/	.	16e/LL	<	16dd\	.	.	.	.	.	.	.	.	.	.	.
8r	.	.	8r	.	.	8r	.	.	8r	.	.	8r	.	.	16A/	.	16f/	.	16cc\	.	.	.	.	.	8r	.	8r	.	8r	.
.	.	.	.	.	.	.	.	.	.	.	.	.	.	.	16B-/JJ	.	16g/JJ	[[	16b-\JJ	.	.	.	.	.	.	.	.	.	.	.
=66	=66	=66	=66	=66	=66	=66	=66	=66	=66	=66	=66	=66	=66	=66	=66	=66	=66	=66	=66	=66	=66	=66	=66	=66	=66	=66	=66	=66	=66	=66
!LO:PB:g=original	!	!	!LO:LB:g=original	!	!	!	!	!	!LO:PB:g=original	!	!	!LO:LB:g=original	!	!	!LO:LB:g=original	!	!	!	!	!	!	!	!	!	!	!	!	!	!	!
!LO:TX:a:t=problem:mixed beam	!	!	!	!	!	!	!	!	!	!	!	!	!	!	!LO:TX:a:t=problem:mixed beam	!	!	!	!	!	!	!	!	!	!	!	!	!	!	!
8F\L	8_	.	2F\	-De-	.	2f\	-De-	.	2a\	-De-	.	2aa\	-De-	.	16A/LL	ff	16a\LL	ff	16a\LL	.	2f\	.	2a\	.	2ff\	.	2aa\	f	[2fff\	.
.	.	.	.	.	.	.	.	.	.	.	.	.	.	.	16f\	.	16a\ 16ff	.	16aa\	.	.	.	.	.	.	.	.	.	.	.
16AA/L	.	.	.	.	.	.	.	.	.	.	.	.	.	.	16f\	.	16a\ 16ff	.	16aa\	.	.	.	.	.	.	.	.	.	.	.
16C/JJ	.	.	.	.	.	.	.	.	.	.	.	.	.	.	16f\JJ	.	16a\JJ 16ff	.	16aa\JJ	.	.	.	.	.	.	.	.	.	.	.
*tremolo	*	*	*	*	*	*	*	*	*	*	*	*	*	*	*	*	*	*	*	*	*	*	*	*	*	*	*	*	*	*
16F\LL	.	.	.	.	.	.	.	.	.	.	.	.	.	.	16f\LL	.	16a\LL 16ff	.	16aa\LL	.	.	.	.	.	.	.	.	.	.	.
16F\	.	.	.	.	.	.	.	.	.	.	.	.	.	.	16f\	.	16a\ 16ff	.	16aa\	.	.	.	.	.	.	.	.	.	.	.
16F\	.	.	.	.	.	.	.	.	.	.	.	.	.	.	16f\	.	16a\ 16ff	.	16aa\	.	.	.	.	.	.	.	.	.	.	.
16F\JJ	.	.	.	.	.	.	.	.	.	.	.	.	.	.	16f\JJ	.	16a\JJ 16ff	.	16aa\JJ	.	.	.	.	.	.	.	.	.	.	.
=67	=67	=67	=67	=67	=67	=67	=67	=67	=67	=67	=67	=67	=67	=67	=67	=67	=67	=67	=67	=67	=67	=67	=67	=67	=67	=67	=67	=67	=67	=67
8D\L	3n_	.	2d\	-i-	.	2f\	-i-	.	2a\	-i-	.	2ff\	-i-	.	8d\LL 8a	.	8a\LL 8ff	.	16ff\LL	.	2g\	.	2g\	.	2ff\	.	2aa\	.	2fff\]	.
.	.	.	.	.	.	.	.	.	.	.	.	.	.	.	.	.	.	.	16ff\	.	.	.	.	.	.	.	.	.	.	.
16F\L	.	.	.	.	.	.	.	.	.	.	.	.	.	.	8d\ 8a	.	8a\ 8ff	.	16ff\	.	.	.	.	.	.	.	.	.	.	.
16A\JJ	.	.	.	.	.	.	.	.	.	.	.	.	.	.	.	.	.	.	16ff\	.	.	.	.	.	.	.	.	.	.	.
16d\LL	.	.	.	.	.	.	.	.	.	.	.	.	.	.	8d\ 8a	.	8a\ 8ff	.	16ff\	.	.	.	.	.	.	.	.	.	.	.
16d\	.	.	.	.	.	.	.	.	.	.	.	.	.	.	.	.	.	.	16ff\	.	.	.	.	.	.	.	.	.	.	.
16d\	.	.	.	.	.	.	.	.	.	.	.	.	.	.	8d\JJ 8a	.	8a\JJ 8ff	.	16ff\	.	.	.	.	.	.	.	.	.	.	.
16d\JJ	.	.	.	.	.	.	.	.	.	.	.	.	.	.	.	.	.	.	16ff\JJ	.	.	.	.	.	.	.	.	.	.	.
=68	=68	=68	=68	=68	=68	=68	=68	=68	=68	=68	=68	=68	=68	=68	=68	=68	=68	=68	=68	=68	=68	=68	=68	=68	=68	=68	=68	=68	=68	=68
!	!	!	!	!	!	!LO:LB:g=original	!	!	!	!	!	!	!	!	!	!	!LO:LB:g=original	!	!LO:LB:g=original	!	!	!	!	!	!	!	!	!	!	!
8B-\L	6_	.	2B-\	-ge-	.	2d\	-ge-	.	2b-\	-ge-	.	2gg\	-ge-	.	8d\LL 8b-	.	8f\LL 8dd	.	16gg\LL	.	2c/	.	2g\	.	2gg\	.	2bb-\	.	2ddd\	.
.	.	.	.	.	.	.	.	.	.	.	.	.	.	.	.	.	.	.	16gg\	.	.	.	.	.	.	.	.	.	.	.
16D\L	.	.	.	.	.	.	.	.	.	.	.	.	.	.	8d\ 8b-	.	8f\ 8dd	.	16gg\	.	.	.	.	.	.	.	.	.	.	.
16G\JJ	.	.	.	.	.	.	.	.	.	.	.	.	.	.	.	.	.	.	16gg\	.	.	.	.	.	.	.	.	.	.	.
16B-\LL	.	.	.	.	.	.	.	.	.	.	.	.	.	.	8d\ 8b-	.	8f\ 8dd	.	16gg\	.	.	.	.	.	.	.	.	.	.	.
16B-\	.	.	.	.	.	.	.	.	.	.	.	.	.	.	.	.	.	.	16gg\	.	.	.	.	.	.	.	.	.	.	.
16B-\	.	.	.	.	.	.	.	.	.	.	.	.	.	.	8d\JJ 8b-	.	8f\JJ 8dd	.	16gg\	.	.	.	.	.	.	.	.	.	.	.
16B-\JJ	.	.	.	.	.	.	.	.	.	.	.	.	.	.	.	.	.	.	16gg\JJ	.	.	.	.	.	.	.	.	.	.	.
*	*	*	*	*	*	*	*	*	*	*	*	*	*	*	*	*	*	*	*Xtremolo	*	*	*	*	*	*	*	*	*	*	*
=69	=69	=69	=69	=69	=69	=69	=69	=69	=69	=69	=69	=69	=69	=69	=69	=69	=69	=69	=69	=69	=69	=69	=69	=69	=69	=69	=69	=69	=69	=69
16c\LL	7	.	2c\	-ni-	.	2c\	-ni-	.	(4g\	-ni-	.	2ee\	-ni-	.	8e\LL 8cc	.	8g/LL 8b-	.	16ee`\LL	.	4A/	.	4f\	.	2ee\	.	2gg\	.	2ccc\	.
16c\	.	.	.	.	.	.	.	.	.	.	.	.	.	.	.	.	.	.	16ff`\	.	.	.	.	.	.	.	.	.	.	.
16c\	.	.	.	.	.	.	.	.	.	.	.	.	.	.	8e\ 8cc	.	8g/ 8b-	.	16gg`\	.	.	.	.	.	.	.	.	.	.	.
16c\JJ	.	.	.	.	.	.	.	.	.	.	.	.	.	.	.	.	.	.	16aa`\JJ	.	.	.	.	.	.	.	.	.	.	.
16C/LL	.	.	.	.	.	.	.	.	4b-\)	.	.	.	.	.	8e\ 8cc	.	8g/ 8b-	.	16bb-`\LL	.	4r	.	4r	.	.	.	.	.	.	.
16C/	.	.	.	.	.	.	.	.	.	.	.	.	.	.	.	.	.	.	16ccc`\	.	.	.	.	.	.	.	.	.	.	.
16C/	.	.	.	.	.	.	.	.	.	.	.	.	.	.	8e\JJ 8cc	.	8g/JJ 8b-	.	16ddd`\	.	.	.	.	.	.	.	.	.	.	.
16C/JJ	.	.	.	.	.	.	.	.	.	.	.	.	.	.	.	.	.	.	16eee`\JJ	.	.	.	.	.	.	.	.	.	.	.
*Xtremolo	*	*	*	*	*	*	*	*	*	*	*	*	*	*	*Xtremolo	*	*Xtremolo	*	*	*	*	*	*	*	*	*	*	*	*	*
=70	=70	=70	=70	=70	=70	=70	=70	=70	=70	=70	=70	=70	=70	=70	=70	=70	=70	=70	=70	=70	=70	=70	=70	=70	=70	=70	=70	=70	=70	=70
!	!	!	!	!	!	!	!	!	!	!	!	!	!	!	!	!	!	!	!	!	!LO:LB:g=original	!	!LO:LB:g=original	!	!	!	!	!	!	!
!	!	!	!	!	!	!	!	!	!	!	!	!	!	!	!	!	!LO:N:vis=2	!	!	!	!LO:TX:a:t=3	!	!LO:TX:a:t=3	!	!	!	!	!	!LO:LB:g=original	!
4F\	8	.	4F\	-trix-	.	4c\	-trix-	.	4a\	-trix-	.	4ff\	-trix-	.	4f\ 4a	.	4g/	.	4fff\	.	1r	.	1r	.	4ff\	.	4aa\	.	4aa\	.
4r	.	.	8r	.	.	8r	.	.	8r	.	.	8r	.	.	4r	.	4r	.	4r	.	.	.	.	.	4r	.	4r	.	4r	.
!	!	!	!	!	!	!	!	!	!	!	!LO:DY:b	!	!	!	!	!	!	!	!	!	!	!	!	!	!	!	!	!	!	!
.	.	.	8F\	-in-	.	8A\	-in-	.	8f\	-in-	p	8cc\	-in-	.	.	.	.	.	.	.	.	.	.	.	.	.	.	.	.	.
=71	=71	=71	=71	=71	=71	=71	=71	=71	=71	=71	=71	=71	=71	=71	=71	=71	=71	=71	=71	=71	=71	=71	=71	=71	=71	=71	=71	=71	=71	=71
!LO:TX:a:t=4	!	!	!LO:TX:a:i:t=morendo	!	!	!LO:TX:a:i:t=morendo	!	!	!	!	!	!LO:TX:a:i:t=morendo	!	!	!LO:TX:a:t=4	!	!LO:TX:a:t=4	!	!LO:TX:a:t=1	!	!	!	!	!	!LO:TX:a:t=1	!	!	!	!LO:TX:a:t=1	!
0r	.	.	4D\	-ter-	.	4d\	-ter-	.	4f\	-ter-	.	4.b-\	-ter-	.	0r	.	0r	.	2r	.	.	.	.	.	2r	.	2r	.	2r	.
.	.	.	4E\	-ce-	.	4c\	ce-	.	4g\	ce-	.	.	.	.	.	.	.	.	.	.	.	.	.	.	.	.	.	.	.	.
.	.	.	.	.	.	.	.	.	.	.	.	16dd\LL	-ce-	.	.	.	.	.	.	.	.	.	.	.	.	.	.	.	.	.
.	.	.	.	.	.	.	.	.	.	.	.	16cc\JJ	.	.	.	.	.	.	.	.	.	.	.	.	.	.	.	.	.	.
=72	=72	=72	=72	=72	=72	=72	=72	=72	=72	=72	=72	=72	=72	=72	=72	=72	=72	=72	=72	=72	=72	=72	=72	=72	=72	=72	=72	=72	=72	=72
!	!	!	!	!	!	!	!	!	!	!	!	!	!	!	!	!	!	!	!	!	!	!	!	!	!LO:LB:g=original	!	!	!	!	!
.	.	.	4F\	-de-	.	4c\	-de-	.	4f\	-de-	.	4a\	-de-	.	.	.	.	.	16r	.	2r	.	2r	.	4r	.	4r	.	4r	.
.	.	.	.	.	.	.	.	.	.	.	.	.	.	.	.	.	.	.	16c/LL	.	.	.	.	.	.	.	.	.	.	.
.	.	.	.	.	.	.	.	.	.	.	.	.	.	.	.	.	.	.	16f/	.	.	.	.	.	.	.	.	.	.	.
.	.	.	.	.	.	.	.	.	.	.	.	.	.	.	.	.	.	.	16g/JJ	.	.	.	.	.	.	.	.	.	.	.
.	.	.	8r	.	.	8r	.	.	8r	.	.	8r	.	.	.	.	.	.	8a/	.	.	.	.	.	8r	.	8r	.	8r	.
.	.	.	8D\	-pro-	.	8d\	-pro-	.	8f\	-pro-	.	8a\	-pro-	.	.	.	.	.	8r	.	.	.	.	.	8a\	p	8ff\	p	8aa\	.
=73	=73	=73	=73	=73	=73	=73	=73	=73	=73	=73	=73	=73	=73	=73	=73	=73	=73	=73	=73	=73	=73	=73	=73	=73	=73	=73	=73	=73	=73	=73
!	!	!	!	!	!	!	!	!	!	!	!	!	!	!	!	!	!	!	!LO:TX:a:t=2	!	!	!	!	!	!	!	!	!	!	!
.	.	.	4BB-/	-no-	.	2d\	-no-	.	[2f\	-no-	.	[2g\	-no-	.	.	.	.	.	1r	.	4r	.	4r	.	4b-\	.	(2ff\	.	2gg\	.
.	.	.	4BBn/	-bis-	.	.	.	.	.	.	.	.	.	.	.	.	.	.	.	.	4c/	.	4g\	.	4dd\	.	.	.	.	.
=74	=74	=74	=74	=74	=74	=74	=74	=74	=74	=74	=74	=74	=74	=74	=74	=74	=74	=74	=74	=74	=74	=74	=74	=74	=74	=74	=74	=74	=74	=74
!	!	!	!LO:LB:g=original	!	!	!	!	!	!LO:LB:g=original	!	!	!LO:LB:g=original	!	!	!	!	!	!	!	!	!	!	!	!	!	!	!	!	!	!
.	.	.	2C/	-no-	.	4.c\	bis-	.	8f\]	bis-	.	2g\]	.	.	.	.	.	.	.	.	8A/	.	8f\	.	4.cc\	.	8ff\L)	.	2gg\	.
.	.	.	.	.	.	.	.	.	16e\LL	-pro-	.	.	.	.	.	.	.	.	.	.	8r	.	8r	.	.	.	16ee\L	.	.	.
.	.	.	.	.	.	.	.	.	16d\JJ	.	.	.	.	.	.	.	.	.	.	.	.	.	.	.	.	.	16dd\JJ	.	.	.
.	.	.	.	.	.	.	.	.	4e\	-no-	.	.	.	.	.	.	.	.	.	.	8A/L	.	8f\L	.	.	.	4ee\	.	.	.
.	.	.	.	.	.	8B-\	-no-	.	.	.	.	.	.	.	.	.	.	.	.	.	8A/J	.	8f\J	.	8b-\	.	.	.	.	.
=75	=75	=75	=75	=75	=75	=75	=75	=75	=75	=75	=75	=75	=75	=75	=75	=75	=75	=75	=75	=75	=75	=75	=75	=75	=75	=75	=75	=75	=75	=75
!LO:LB:g=original	!	!	!	!	!	!	!	!	!	!	!	!	!	!	!	!	!	!	!LO:LB:g=original	!	!	!	!	!	!	!	!	!	!	!
4r	.	.	8FF/	-bis-	.	8A\	-bis-	.	8f\	-bis-	.	8f/	-bis-	.	4r	.	4r	.	4r	.	2F;/	.	2f;\	.	8a\	.	8ff\	.	8ff\	.
.	.	.	8r	.	.	8r	.	.	8r	.	.	8r	.	.	.	.	.	.	.	.	.	.	.	.	8r	.	8r	.	8r	.
!	!	!	!	!	!LO:DY:b	!	!	!LO:DY:b	!	!	!LO:DY:b	!	!	!	!	!	!	!	!	!	!	!	!	!	!	!	!	!	!	!
8F\L	5_	ff	8F\	-al-	f	8A\	-al-	ff	8f\	-al-	f	8cc\	-al-	.	8f\L 8a	.	8a\L 8ff	.	8cc\L 8aa	f	.	.	.	.	8ff\L	f	8aa\	.	8ccc\L	.
8F\J	.	.	8F\	-le-	.	8A\	-le-	.	8f\	-le-	.	8cc\	-le-	.	8f\J 8a	.	8a\J 8ff	.	8cc\J 8aa	.	.	.	.	.	8ff\J	.	8aa\	.	8ccc\J	.
=76	=76	=76	=76	=76	=76	=76	=76	=76	=76	=76	=76	=76	=76	=76	=76	=76	=76	=76	=76	=76	=76	=76	=76	=76	=76	=76	=76	=76	=76	=76
!	!	!	!	!	!	!LO:LB:g=original	!	!	!	!	!	!	!	!	!	!	!	!	!	!	!	!	!	!	!	!	!	!	!	!
*	*	*	*	*	*	*	*	*	*	*	*	*	*	*	*	*	*	*	*^	*	*	*	*	*	*	*	*	*	*	*
!	!	!	!	!	!	!	!	!	!	!	!	!	!	!	!	!	!	!	!LO:N:vis=4	!	!	!	!	!	!	!	!	!	!	!	!
2BB-;\ 2B-	3	.	2B-;\	-lu-	.	2B-;\	-lu-	.	2f;\	-lu-	.	2dd;\	-lu-	.	2d;\ 2b-	.	2dd;\	.	2d;\ 2b-	2bb-	.	2A;/	.	2f;\	.	2ff;\	.	2bb-;\	.	2ddd;\	.
=77	=77	=77	=77	=77	=77	=77	=77	=77	=77	=77	=77	=77	=77	=77	=77	=77	=77	=77	=77	=77	=77	=77	=77	=77	=77	=77	=77	=77	=77	=77	=77
!	!	!	!	!	!	!	!	!	!	!	!	!	!	!	!	!	!	!	!LO:N:vis=4	!	!	!	!	!	!	!	!	!	!	!	!
2FF;\ 2F	5	.	2F;\	-ja	.	2A;\	-ja	.	2f;\	-ja	.	2cc;\	-ja	.	2f;\ 2a	.	2cc;\	.	2f;\ 2cc	2aa	.	2ryy	.	2r	.	2ff;\	.	2aa;\	.	2ccc;\	.
*	*	*	*	*	*	*	*	*	*	*	*	*	*	*	*	*	*	*	*v	*v	*	*	*	*	*	*	*	*	*	*	*
==	==	==	==	==	==	==	==	==	==	==	==	==	==	==	==	==	==	==	==	==	==	==	==	==	==	==	==	==	==	==
*-	*-	*-	*-	*-	*-	*-	*-	*-	*-	*-	*-	*-	*-	*-	*-	*-	*-	*-	*-	*-	*-	*-	*-	*-	*-	*-	*-	*-	*-	*-
!!!system-decoration: s1,s2,s3,s4,s5,s6[(s7,s8,s9,s10)]s11,s12,s13
!!!RDF**kern: <= below
!!!RDF**kern: >= above
!!!RDF**dynam: fr = f
!!!AIN: 1 alto 1 bass 2 clars 2 cor 1 flt 1 organ 1 soprn 1 tenor 1 viola 2 violn
!!!ENC: Anna Matuszewska
!!!END: 2020-05-01
